(.../pcb-gcode-3.6.0.4/pcb-gcode.ulp)
(Copyright 2005 - 2012 by John Johnson)
(See readme.txt for licensing terms.)
(This file generated from the board:)
(.../Raspberry Pi enclosure baord/Rpi board.brd)
(Current profile is .../pcb-gcode-3.6.0.4/profiles/generic.pp  )
(This file generated 6/22/2019 12:20 AM)
(Settings from pcb-machine.h)
(  Tool Size)
(0.3000 )
(Z Axis Settings)
(  High     Up        Down     Drill)
(12.7000 	2.4000 	-0.1000 	-1.7000 )
(spindle on time = 3.0000)
(milling depth = -0.2540)
(text depth = -0.1270)
(tool change at 0.0000 -12.0000 20.0000 )
(feed rate xy = F100.00 )
(feed rate z  = F50.00 )
(Settings from pcb-defaults.h)
(isolate min = 0.0254)
(isolate max = 0.4000)
(isolate step = 0.1340)
(Generated top outlines, top drill, )
(Unit of measure: mm)
( Tool|       Size       |  Min Sub |  Max Sub |   Count )
( T01  0.350mm 0.0138in 0.0000in 0.0000in )
( T02  0.800mm 0.0315in 0.0000in 0.0000in )
( T03  1.000mm 0.0394in 0.0000in 0.0000in )
( T04  1.016mm 0.0400in 0.0000in 0.0000in )
( T05  1.200mm 0.0472in 0.0000in 0.0000in )
( T06  3.000mm 0.1181in 0.0000in 0.0000in )
(Metric Mode)
G21
(Absolute Coordinates)
G90
M05
G00 Z20.0000 
G00 X0.0000 Y-12.0000 
M06 T01  ; 0.3500 
G01 Z0.0000 F50.00 
M06 T01  ; 0.3500 
G00 Z2.4000 
M03
G04 P3.000000
G00 Z2.400000
G00 X0.3518 Y60.5239 
G01 Z-1.7000 F50.00 
G01 Z2.400000
(R2.4000  P1.000000)
(G00 Z2.400000)
G00 X0.3729 Y0.3769 
G01 Z-1.700000
G01 Z2.400000
(G00 Z2.400000)
G00 X77.6651 Y60.5452 
G01 Z-1.700000
G01 Z2.400000
(G00 Z2.400000)
G00 X77.6655 Y0.3843 
G01 Z-1.700000
G01 Z2.400000
M05
G00 Z20.0000 
M06 T02  ; 0.8000 
G01 Z0.0000 F50.00 
M06 T02  ; 0.8000 
G00 Z2.4000 
M03
G04 P3.000000
G00 Z2.400000
G00 X7.0121 Y6.1274 
G01 Z-1.7000 F50.00 
G01 Z2.400000
(R2.4000  P1.000000)
(G00 Z2.400000)
G00 X2.2121 Y9.1274 
G01 Z-1.700000
G01 Z2.400000
M05
G00 Z20.0000 
M06 T03  ; 1.0000 
G01 Z0.0000 F50.00 
M06 T03  ; 1.0000 
G00 Z2.4000 
M03
G04 P3.000000
G00 Z2.400000
G00 X7.0121 Y12.1274 
G01 Z-1.7000 F50.00 
G01 Z2.400000
(R2.4000  P1.000000)
(G00 Z2.400000)
G00 X11.0000 Y37.0000 
G01 Z-1.700000
G01 Z2.400000
(G00 Z2.400000)
G00 X11.0000 Y42.0000 
G01 Z-1.700000
G01 Z2.400000
M05
G00 Z20.0000 
M06 T04  ; 1.0160 
G01 Z0.0000 F50.00 
M06 T04  ; 1.0160 
G00 Z2.4000 
M03
G04 P3.000000
G00 Z2.400000
G00 X31.5540 Y51.6369 
G01 Z-1.7000 F50.00 
G01 Z2.400000
(R2.4000  P1.000000)
(G00 Z2.400000)
G00 X31.5540 Y54.1769 
G01 Z-1.700000
G01 Z2.400000
(G00 Z2.400000)
G00 X34.0940 Y51.6369 
G01 Z-1.700000
G01 Z2.400000
(G00 Z2.400000)
G00 X34.0940 Y54.1769 
G01 Z-1.700000
G01 Z2.400000
(G00 Z2.400000)
G00 X36.6340 Y51.6369 
G01 Z-1.700000
G01 Z2.400000
(G00 Z2.400000)
G00 X36.6340 Y54.1769 
G01 Z-1.700000
G01 Z2.400000
(G00 Z2.400000)
G00 X39.1740 Y51.6369 
G01 Z-1.700000
G01 Z2.400000
(G00 Z2.400000)
G00 X39.1740 Y54.1769 
G01 Z-1.700000
G01 Z2.400000
(G00 Z2.400000)
G00 X41.7140 Y51.6369 
G01 Z-1.700000
G01 Z2.400000
(G00 Z2.400000)
G00 X41.7140 Y54.1769 
G01 Z-1.700000
G01 Z2.400000
(G00 Z2.400000)
G00 X44.2540 Y51.6369 
G01 Z-1.700000
G01 Z2.400000
(G00 Z2.400000)
G00 X44.2540 Y54.1769 
G01 Z-1.700000
G01 Z2.400000
(G00 Z2.400000)
G00 X46.7940 Y51.6369 
G01 Z-1.700000
G01 Z2.400000
(G00 Z2.400000)
G00 X46.7940 Y54.1769 
G01 Z-1.700000
G01 Z2.400000
(G00 Z2.400000)
G00 X49.3340 Y51.6369 
G01 Z-1.700000
G01 Z2.400000
(G00 Z2.400000)
G00 X49.3340 Y54.1769 
G01 Z-1.700000
G01 Z2.400000
(G00 Z2.400000)
G00 X51.8740 Y51.6369 
G01 Z-1.700000
G01 Z2.400000
(G00 Z2.400000)
G00 X51.8740 Y54.1769 
G01 Z-1.700000
G01 Z2.400000
(G00 Z2.400000)
G00 X54.4140 Y51.6369 
G01 Z-1.700000
G01 Z2.400000
(G00 Z2.400000)
G00 X54.4140 Y54.1769 
G01 Z-1.700000
G01 Z2.400000
(G00 Z2.400000)
G00 X56.9540 Y51.6369 
G01 Z-1.700000
G01 Z2.400000
(G00 Z2.400000)
G00 X56.9540 Y54.1769 
G01 Z-1.700000
G01 Z2.400000
(G00 Z2.400000)
G00 X59.4940 Y51.6369 
G01 Z-1.700000
G01 Z2.400000
(G00 Z2.400000)
G00 X59.4940 Y54.1769 
G01 Z-1.700000
G01 Z2.400000
(G00 Z2.400000)
G00 X62.0340 Y51.6369 
G01 Z-1.700000
G01 Z2.400000
(G00 Z2.400000)
G00 X62.0340 Y54.1769 
G01 Z-1.700000
G01 Z2.400000
(G00 Z2.400000)
G00 X64.5740 Y51.6369 
G01 Z-1.700000
G01 Z2.400000
(G00 Z2.400000)
G00 X64.5740 Y54.1769 
G01 Z-1.700000
G01 Z2.400000
(G00 Z2.400000)
G00 X67.1140 Y51.6369 
G01 Z-1.700000
G01 Z2.400000
(G00 Z2.400000)
G00 X67.1140 Y54.1769 
G01 Z-1.700000
G01 Z2.400000
(G00 Z2.400000)
G00 X69.6540 Y51.6369 
G01 Z-1.700000
G01 Z2.400000
(G00 Z2.400000)
G00 X69.6540 Y54.1769 
G01 Z-1.700000
G01 Z2.400000
(G00 Z2.400000)
G00 X21.3940 Y51.6369 
G01 Z-1.700000
G01 Z2.400000
(G00 Z2.400000)
G00 X21.3940 Y54.1769 
G01 Z-1.700000
G01 Z2.400000
(G00 Z2.400000)
G00 X23.9340 Y51.6369 
G01 Z-1.700000
G01 Z2.400000
(G00 Z2.400000)
G00 X23.9340 Y54.1769 
G01 Z-1.700000
G01 Z2.400000
(G00 Z2.400000)
G00 X26.4740 Y51.6369 
G01 Z-1.700000
G01 Z2.400000
(G00 Z2.400000)
G00 X26.4740 Y54.1769 
G01 Z-1.700000
G01 Z2.400000
(G00 Z2.400000)
G00 X29.0140 Y51.6369 
G01 Z-1.700000
G01 Z2.400000
(G00 Z2.400000)
G00 X29.0140 Y54.1769 
G01 Z-1.700000
G01 Z2.400000
M05
G00 Z20.0000 
M06 T05  ; 1.2000 
G01 Z0.0000 F50.00 
M06 T05  ; 1.2000 
G00 Z2.4000 
M03
G04 P3.000000
G00 Z2.400000
G00 X47.2710 Y32.0640 
G01 Z-1.7000 F50.00 
G01 Z2.400000
(R2.4000  P1.000000)
(G00 Z2.400000)
G00 X47.2710 Y34.6040 
G01 Z-1.700000
G01 Z2.400000
(G00 Z2.400000)
G00 X47.2710 Y21.3960 
G01 Z-1.700000
G01 Z2.400000
(G00 Z2.400000)
G00 X47.2710 Y23.9360 
G01 Z-1.700000
G01 Z2.400000
(G00 Z2.400000)
G00 X28.7290 Y32.0640 
G01 Z-1.700000
G01 Z2.400000
(G00 Z2.400000)
G00 X28.7290 Y34.6040 
G01 Z-1.700000
G01 Z2.400000
(G00 Z2.400000)
G00 X28.7290 Y21.3960 
G01 Z-1.700000
G01 Z2.400000
(G00 Z2.400000)
G00 X28.7290 Y23.9360 
G01 Z-1.700000
G01 Z2.400000
M05
G00 Z20.0000 
M06 T06  ; 3.0000 
G01 Z0.0000 F50.00 
M06 T06  ; 3.0000 
G00 Z2.4000 
M03
G04 P3.000000
G00 Z2.400000
G00 X74.5140 Y52.8900 
G01 Z-1.7000 F50.00 
G01 Z2.400000
(R2.4000  P1.000000)
(G00 Z2.400000)
G00 X74.5151 Y3.8970 
G01 Z-1.700000
G01 Z2.400000
(G00 Z2.400000)
G00 X16.5118 Y52.9043 
G01 Z-1.700000
G01 Z2.400000
(G00 Z2.400000)
G00 X16.5324 Y3.8941 
G01 Z-1.700000
G01 Z2.400000
T01 
G00 Z12.7000 
M05
M02
