(.../pcb-gcode-3.6.0.4/pcb-gcode.ulp)
(Copyright 2005 - 2012 by John Johnson)
(See readme.txt for licensing terms.)
(This file generated from the board:)
(.../Raspberry Pi enclosure baord/Rpi board.brd)
(Current profile is .../pcb-gcode-3.6.0.4/profiles/generic.pp  )
(This file generated 6/22/2019 12:19 AM)
(Settings from pcb-machine.h)
(  Tool Size)
(0.3000 )
(Z Axis Settings)
(  High     Up        Down     Drill)
(12.7000 	2.4000 	-0.1000 	-1.7000 )
(spindle on time = 3.0000)
(milling depth = -0.2540)
(text depth = -0.1270)
(tool change at 0.0000 -12.0000 20.0000 )
(feed rate xy = F100.00 )
(feed rate z  = F50.00 )
(Settings from pcb-defaults.h)
(isolate min = 0.0254)
(isolate max = 0.4000)
(isolate step = 0.1340)
(Generated top outlines, top drill, )
(Unit of measure: mm)
(Metric Mode)
G21
(Absolute Coordinates)
G90
G00 X0.0000 Y0.0000 
M03
G04 P3.000000
G00 Z2.4000 
G00 X18.3847 Y51.4671 
G01 Z-0.1000 F50.00 
G01 X17.9489 Y51.0313 F100.00 
G01 X17.4152 Y50.7232 
G01 X16.8199 Y50.5637 
G01 X16.2036 Y50.5637 
G01 X15.6083 Y50.7232 
G01 X15.0746 Y51.0313 
G01 X14.6388 Y51.4671 
G01 X14.3307 Y52.0008 
G01 X14.1712 Y52.5961 
G01 X14.1712 Y53.2124 
G01 X14.3307 Y53.8077 
G01 X14.6388 Y54.3414 
G01 X15.0746 Y54.7772 
G01 X15.6083 Y55.0854 
G01 X16.2036 Y55.2449 
G01 X16.8199 Y55.2449 
G01 X17.4152 Y55.0854 
G01 X17.9489 Y54.7772 
G01 X18.3847 Y54.3414 
G01 X18.6929 Y53.8077 
G01 X18.8524 Y53.2124 
G01 X18.8524 Y52.5961 
G01 X18.6929 Y52.0008 
G01 X18.3847 Y51.4671 
G00 Z2.4000 
G00 X29.9664 Y32.8908 
G01 Z-0.1000 F50.00 
G01 X30.1886 Y32.3543 F100.00 
G01 X30.1886 Y31.7737 
G01 X29.9664 Y31.2372 
G01 X29.5558 Y30.8266 
G01 X29.0193 Y30.6044 
G01 X28.4387 Y30.6044 
G01 X27.9022 Y30.8266 
G01 X27.4916 Y31.2372 
G01 X27.2694 Y31.7737 
G01 X27.2694 Y32.3543 
G01 X27.4916 Y32.8908 
G01 X27.9022 Y33.3014 
G01 X27.9594 Y33.3251 
G01 X27.9794 Y33.3282 
G01 X28.0052 Y33.3440 
G01 X28.0331 Y33.3556 
G01 X28.0475 Y33.3700 
G01 X28.0647 Y33.3805 
G01 X28.0825 Y33.4050 
G01 X28.1039 Y33.4264 
G01 X28.1117 Y33.4451 
G01 X28.1236 Y33.4615 
G01 X28.1306 Y33.4909 
G01 X28.1422 Y33.5189 
G01 X28.1422 Y33.5391 
G01 X28.1469 Y33.5588 
G01 X28.1430 Y33.5834 
G01 X28.2778 Y33.5147 
G01 X28.4538 Y33.4575 
G01 X28.6365 Y33.4286 
G01 X28.8215 Y33.4286 
G01 X29.0042 Y33.4575 
G01 X29.1802 Y33.5147 
G01 X29.3149 Y33.5834 
G01 X29.3111 Y33.5588 
G01 X29.3158 Y33.5391 
G01 X29.3158 Y33.5189 
G01 X29.3274 Y33.4909 
G01 X29.3344 Y33.4615 
G01 X29.3463 Y33.4451 
G01 X29.3541 Y33.4264 
G01 X29.3755 Y33.4050 
G01 X29.3933 Y33.3805 
G01 X29.4105 Y33.3700 
G01 X29.4249 Y33.3556 
G01 X29.4528 Y33.3440 
G01 X29.4786 Y33.3282 
G01 X29.4986 Y33.3251 
G01 X29.5558 Y33.3014 
G01 X29.9664 Y32.8908 
G00 Z2.4000 
G00 X29.9044 Y31.9715 
G01 Z-0.1000 F50.00 
G01 X29.9044 Y32.1565 F100.00 
G01 X29.8755 Y32.3392 
G01 X29.8183 Y32.5152 
G01 X29.7343 Y32.6800 
G01 X29.6255 Y32.8297 
G01 X29.4947 Y32.9605 
G01 X29.3450 Y33.0693 
G01 X29.1802 Y33.1533 
G01 X29.0042 Y33.2105 
G01 X28.8215 Y33.2394 
G01 X28.6365 Y33.2394 
G01 X28.4538 Y33.2105 
G01 X28.2778 Y33.1533 
G01 X28.1130 Y33.0693 
G01 X27.9633 Y32.9605 
G01 X27.8325 Y32.8297 
G01 X27.7237 Y32.6800 
G01 X27.6397 Y32.5152 
G01 X27.5825 Y32.3392 
G01 X27.5536 Y32.1565 
G01 X27.5536 Y31.9715 
G01 X27.5825 Y31.7888 
G01 X27.6397 Y31.6128 
G01 X27.7237 Y31.4480 
G01 X27.8325 Y31.2983 
G01 X27.9633 Y31.1675 
G01 X28.1130 Y31.0587 
G01 X28.2778 Y30.9747 
G01 X28.4538 Y30.9175 
G01 X28.6365 Y30.8886 
G01 X28.8215 Y30.8886 
G01 X29.0042 Y30.9175 
G01 X29.1802 Y30.9747 
G01 X29.3450 Y31.0587 
G01 X29.4947 Y31.1675 
G01 X29.6255 Y31.2983 
G01 X29.7343 Y31.4480 
G01 X29.8183 Y31.6128 
G01 X29.8755 Y31.7888 
G01 X29.9044 Y31.9715 
G00 Z2.4000 
G00 X18.4054 Y2.4569 
G01 Z-0.1000 F50.00 
G01 X17.9696 Y2.0211 F100.00 
G01 X17.4359 Y1.7130 
G01 X16.8406 Y1.5535 
G01 X16.2243 Y1.5535 
G01 X15.6290 Y1.7130 
G01 X15.0953 Y2.0211 
G01 X14.6595 Y2.4569 
G01 X14.3513 Y2.9906 
G01 X14.1918 Y3.5859 
G01 X14.1918 Y4.2022 
G01 X14.3513 Y4.7975 
G01 X14.6595 Y5.3312 
G01 X15.0953 Y5.7670 
G01 X15.6290 Y6.0752 
G01 X16.2243 Y6.2347 
G01 X16.8406 Y6.2347 
G01 X17.4359 Y6.0752 
G01 X17.9696 Y5.7670 
G01 X18.4054 Y5.3312 
G01 X18.7135 Y4.7975 
G01 X18.8730 Y4.2022 
G01 X18.8730 Y3.5859 
G01 X18.7135 Y2.9906 
G01 X18.4054 Y2.4569 
G00 Z2.4000 
G00 X48.5084 Y32.8908 
G01 Z-0.1000 F50.00 
G01 X48.7306 Y32.3543 F100.00 
G01 X48.7306 Y31.7737 
G01 X48.5084 Y31.2372 
G01 X48.0978 Y30.8266 
G01 X47.5613 Y30.6044 
G01 X46.9807 Y30.6044 
G01 X46.4442 Y30.8266 
G01 X46.0336 Y31.2372 
G01 X45.8114 Y31.7737 
G01 X45.8114 Y32.3543 
G01 X46.0336 Y32.8908 
G01 X46.4442 Y33.3014 
G01 X46.5014 Y33.3251 
G01 X46.5214 Y33.3282 
G01 X46.5472 Y33.3440 
G01 X46.5751 Y33.3556 
G01 X46.5895 Y33.3700 
G01 X46.6067 Y33.3805 
G01 X46.6245 Y33.4050 
G01 X46.6459 Y33.4264 
G01 X46.6537 Y33.4451 
G01 X46.6656 Y33.4615 
G01 X46.6726 Y33.4909 
G01 X46.6842 Y33.5189 
G01 X46.6842 Y33.5391 
G01 X46.6889 Y33.5588 
G01 X46.6850 Y33.5834 
G01 X46.8198 Y33.5147 
G01 X46.9958 Y33.4575 
G01 X47.1785 Y33.4286 
G01 X47.3635 Y33.4286 
G01 X47.5462 Y33.4575 
G01 X47.7222 Y33.5147 
G01 X47.8569 Y33.5834 
G01 X47.8531 Y33.5588 
G01 X47.8578 Y33.5391 
G01 X47.8578 Y33.5189 
G01 X47.8694 Y33.4909 
G01 X47.8764 Y33.4615 
G01 X47.8883 Y33.4451 
G01 X47.8961 Y33.4264 
G01 X47.9175 Y33.4050 
G01 X47.9353 Y33.3805 
G01 X47.9525 Y33.3700 
G01 X47.9669 Y33.3556 
G01 X47.9948 Y33.3440 
G01 X48.0206 Y33.3282 
G01 X48.0406 Y33.3251 
G01 X48.0978 Y33.3014 
G01 X48.5084 Y32.8908 
G00 Z2.4000 
G00 X48.4464 Y31.9715 
G01 Z-0.1000 F50.00 
G01 X48.4464 Y32.1565 F100.00 
G01 X48.4175 Y32.3392 
G01 X48.3603 Y32.5152 
G01 X48.2763 Y32.6800 
G01 X48.1675 Y32.8297 
G01 X48.0367 Y32.9605 
G01 X47.8870 Y33.0693 
G01 X47.7222 Y33.1533 
G01 X47.5462 Y33.2105 
G01 X47.3635 Y33.2394 
G01 X47.1785 Y33.2394 
G01 X46.9958 Y33.2105 
G01 X46.8198 Y33.1533 
G01 X46.6550 Y33.0693 
G01 X46.5053 Y32.9605 
G01 X46.3745 Y32.8297 
G01 X46.2657 Y32.6800 
G01 X46.1817 Y32.5152 
G01 X46.1245 Y32.3392 
G01 X46.0956 Y32.1565 
G01 X46.0956 Y31.9715 
G01 X46.1245 Y31.7888 
G01 X46.1817 Y31.6128 
G01 X46.2657 Y31.4480 
G01 X46.3745 Y31.2983 
G01 X46.5053 Y31.1675 
G01 X46.6550 Y31.0587 
G01 X46.8198 Y30.9747 
G01 X46.9958 Y30.9175 
G01 X47.1785 Y30.8886 
G01 X47.3635 Y30.8886 
G01 X47.5462 Y30.9175 
G01 X47.7222 Y30.9747 
G01 X47.8870 Y31.0587 
G01 X48.0367 Y31.1675 
G01 X48.1675 Y31.2983 
G01 X48.2763 Y31.4480 
G01 X48.3603 Y31.6128 
G01 X48.4175 Y31.7888 
G01 X48.4464 Y31.9715 
G00 Z2.4000 
G00 X0.8159 Y0.7168 
G01 Z-0.1000 F50.00 
G01 X0.7128 Y0.8199 F100.00 
G01 X0.6245 Y0.8709 
G01 X0.6245 Y60.0421 
G01 X0.6917 Y60.0809 
G01 X0.7948 Y60.1840 
G01 X0.8458 Y60.2723 
G01 X77.1833 Y60.2723 
G01 X77.2221 Y60.2052 
G01 X77.3252 Y60.1022 
G01 X77.4135 Y60.0512 
G01 X77.4135 Y0.8780 
G01 X77.3255 Y0.8273 
G01 X77.2225 Y0.7242 
G01 X77.1715 Y0.6359 
G01 X0.8626 Y0.6359 
G01 X0.8159 Y0.7168 
G00 Z2.4000 
G00 X25.2305 Y19.5564 
G01 Z-0.1000 F50.00 
G01 X17.5564 Y27.2305 F100.00 
G01 X17.5564 Y40.0733 
G01 X17.5185 Y40.2148 
G01 X17.4452 Y40.3416 
G01 X15.3416 Y42.4452 
G01 X15.2148 Y42.5185 
G01 X15.0733 Y42.5564 
G01 X12.6754 Y42.5564 
G01 X12.6754 Y43.5349 
G01 X12.6487 Y43.5994 
G01 X12.5994 Y43.6487 
G01 X12.5349 Y43.6754 
G01 X9.4651 Y43.6754 
G01 X9.4006 Y43.6487 
G01 X9.3513 Y43.5994 
G01 X9.3246 Y43.5349 
G01 X9.3246 Y40.4651 
G01 X9.3513 Y40.4006 
G01 X9.4006 Y40.3513 
G01 X9.4651 Y40.3246 
G01 X12.5349 Y40.3246 
G01 X12.5994 Y40.3513 
G01 X12.6487 Y40.4006 
G01 X12.6754 Y40.4651 
G01 X12.6754 Y41.4436 
G01 X14.7695 Y41.4436 
G01 X16.4436 Y39.7695 
G01 X16.4436 Y26.9267 
G01 X16.4815 Y26.7852 
G01 X16.5548 Y26.6584 
G01 X16.6584 Y26.5548 
G01 X24.6584 Y18.5548 
G01 X24.7852 Y18.4815 
G01 X24.9267 Y18.4436 
G01 X31.0733 Y18.4436 
G01 X31.2148 Y18.4815 
G01 X31.3416 Y18.5548 
G01 X36.4452 Y23.6584 
G01 X36.5185 Y23.7852 
G01 X36.5564 Y23.9267 
G01 X36.5564 Y27.7695 
G01 X42.8345 Y34.0476 
G01 X43.7484 Y34.0476 
G01 X43.7484 Y22.4381 
G01 X43.7867 Y22.3457 
G01 X43.8575 Y22.2749 
G01 X43.9500 Y22.2366 
G01 X45.6098 Y22.2366 
G01 X45.7023 Y22.2749 
G01 X45.7731 Y22.3457 
G01 X45.8114 Y22.4381 
G01 X45.8114 Y22.4874 
G01 X45.8263 Y22.5235 
G01 X45.8618 Y22.6092 
G01 X45.8646 Y22.6159 
G01 X45.8646 Y22.7160 
G01 X45.8114 Y22.8446 
G01 X45.8114 Y25.0274 
G01 X45.8814 Y25.1963 
G01 X46.0107 Y25.3256 
G01 X46.1796 Y25.3956 
G01 X48.3624 Y25.3956 
G01 X48.5313 Y25.3256 
G01 X48.6606 Y25.1963 
G01 X48.7306 Y25.0274 
G01 X48.7306 Y22.8446 
G01 X48.6774 Y22.7160 
G01 X48.6774 Y22.6159 
G01 X48.7157 Y22.5235 
G01 X48.7306 Y22.4874 
G01 X48.7306 Y20.3046 
G01 X48.6606 Y20.1357 
G01 X48.5313 Y20.0064 
G01 X48.3624 Y19.9364 
G01 X48.3131 Y19.9364 
G01 X48.2207 Y19.8981 
G01 X48.1499 Y19.8273 
G01 X48.1116 Y19.7348 
G01 X48.1116 Y17.1038 
G01 X47.9836 Y16.7948 
G01 X44.8732 Y13.6844 
G01 X44.5642 Y13.5564 
G01 X21.8237 Y13.5564 
G01 X21.7312 Y13.5181 
G01 X21.6604 Y13.4473 
G01 X19.6279 Y11.4148 
G01 X19.3189 Y11.2868 
G01 X9.5124 Y11.2868 
G01 X9.4199 Y11.2485 
G01 X9.3491 Y11.1777 
G01 X8.9833 Y10.8118 
G01 X8.4129 Y10.5756 
G01 X5.6112 Y10.5756 
G01 X5.0408 Y10.8118 
G01 X4.6043 Y11.2484 
G01 X4.3680 Y11.8187 
G01 X4.3680 Y12.4361 
G01 X4.6043 Y13.0064 
G01 X5.0408 Y13.4429 
G01 X5.6112 Y13.6792 
G01 X8.4129 Y13.6792 
G01 X8.9833 Y13.4429 
G01 X9.4199 Y13.0063 
G01 X9.5124 Y12.9680 
G01 X18.7494 Y12.9680 
G01 X18.8418 Y13.0063 
G01 X18.9126 Y13.0771 
G01 X20.6930 Y14.8575 
G01 X20.7313 Y14.9500 
G01 X20.7313 Y15.0500 
G01 X20.6930 Y15.1425 
G01 X20.6223 Y15.2133 
G01 X20.5298 Y15.2516 
G01 X1.1102 Y15.2516 
G01 X1.0178 Y15.2133 
G01 X0.9470 Y15.1425 
G01 X0.9087 Y15.0500 
G01 X0.9087 Y11.1294 
G01 X0.9241 Y11.0921 
G01 X0.9470 Y11.0369 
G01 X1.0178 Y10.9661 
G01 X1.1102 Y10.9278 
G01 X1.1598 Y10.9278 
G01 X1.1279 Y10.8840 
G01 X1.0373 Y10.7062 
G01 X0.9757 Y10.5164 
G01 X0.9445 Y10.3194 
G01 X0.9445 Y7.9354 
G01 X0.9757 Y7.7384 
G01 X1.0373 Y7.5486 
G01 X1.1279 Y7.3708 
G01 X1.1598 Y7.3270 
G01 X1.1102 Y7.3270 
G01 X1.0178 Y7.2887 
G01 X0.9481 Y7.2190 
G01 X0.9250 Y7.1648 
G01 X0.9087 Y7.1254 
G01 X0.9087 Y1.1216 
G01 X0.9470 Y1.0291 
G01 X1.0178 Y0.9584 
G01 X1.1102 Y0.9201 
G01 X55.0500 Y0.9201 
G01 X55.1425 Y0.9584 
G01 X55.2133 Y1.0291 
G01 X55.2516 Y1.1216 
G01 X55.2516 Y35.0500 
G01 X55.2133 Y35.1425 
G01 X55.1425 Y35.2133 
G01 X52.1425 Y38.2133 
G01 X52.0500 Y38.2516 
G01 X45.9500 Y38.2516 
G01 X45.8575 Y38.2133 
G01 X45.7867 Y38.1425 
G01 X43.7867 Y36.1425 
G01 X43.7484 Y36.0500 
G01 X43.7484 Y35.1604 
G01 X42.5307 Y35.1604 
G01 X42.3892 Y35.1225 
G01 X42.2624 Y35.0492 
G01 X42.1588 Y34.9456 
G01 X35.6584 Y28.4452 
G01 X35.5548 Y28.3416 
G01 X35.4815 Y28.2148 
G01 X35.4436 Y28.0733 
G01 X35.4436 Y24.2305 
G01 X30.7695 Y19.5564 
G01 X25.2305 Y19.5564 
G00 Z2.4000 
G00 X22.5092 Y51.5491 
G01 Z-0.1000 F50.00 
G01 X22.5092 Y51.7246 F100.00 
G01 X22.4817 Y51.8980 
G01 X22.4275 Y52.0650 
G01 X22.3478 Y52.2214 
G01 X22.2446 Y52.3634 
G01 X22.1205 Y52.4875 
G01 X21.9785 Y52.5907 
G01 X21.8221 Y52.6704 
G01 X21.6551 Y52.7246 
G01 X21.4817 Y52.7521 
G01 X21.3062 Y52.7521 
G01 X21.1328 Y52.7246 
G01 X20.9659 Y52.6704 
G01 X20.8095 Y52.5907 
G01 X20.6675 Y52.4875 
G01 X20.5433 Y52.3634 
G01 X20.4402 Y52.2214 
G01 X20.3605 Y52.0650 
G01 X20.3062 Y51.8980 
G01 X20.2788 Y51.7246 
G01 X20.2788 Y51.5491 
G01 X20.3062 Y51.3757 
G01 X20.3605 Y51.2088 
G01 X20.4402 Y51.0524 
G01 X20.5433 Y50.9104 
G01 X20.6675 Y50.7863 
G01 X20.8095 Y50.6831 
G01 X20.9659 Y50.6034 
G01 X21.1328 Y50.5491 
G01 X21.3062 Y50.5217 
G01 X21.4817 Y50.5217 
G01 X21.6551 Y50.5491 
G01 X21.8221 Y50.6034 
G01 X21.9785 Y50.6831 
G01 X22.1205 Y50.7863 
G01 X22.2446 Y50.9104 
G01 X22.3478 Y51.0524 
G01 X22.4275 Y51.2088 
G01 X22.4817 Y51.3757 
G01 X22.5092 Y51.5491 
G00 Z2.4000 
G00 X25.0492 Y51.5491 
G01 Z-0.1000 F50.00 
G01 X25.0492 Y51.7246 F100.00 
G01 X25.0217 Y51.8980 
G01 X24.9675 Y52.0650 
G01 X24.8878 Y52.2214 
G01 X24.7846 Y52.3634 
G01 X24.6605 Y52.4875 
G01 X24.5185 Y52.5907 
G01 X24.3621 Y52.6704 
G01 X24.1951 Y52.7246 
G01 X24.0217 Y52.7521 
G01 X23.8462 Y52.7521 
G01 X23.6728 Y52.7246 
G01 X23.5059 Y52.6704 
G01 X23.3495 Y52.5907 
G01 X23.2075 Y52.4875 
G01 X23.0833 Y52.3634 
G01 X22.9802 Y52.2214 
G01 X22.9005 Y52.0650 
G01 X22.8462 Y51.8980 
G01 X22.8188 Y51.7246 
G01 X22.8188 Y51.5491 
G01 X22.8462 Y51.3757 
G01 X22.9005 Y51.2088 
G01 X22.9802 Y51.0524 
G01 X23.0833 Y50.9104 
G01 X23.2075 Y50.7863 
G01 X23.3495 Y50.6831 
G01 X23.5059 Y50.6034 
G01 X23.6728 Y50.5491 
G01 X23.8462 Y50.5217 
G01 X24.0217 Y50.5217 
G01 X24.1951 Y50.5491 
G01 X24.3621 Y50.6034 
G01 X24.5185 Y50.6831 
G01 X24.6605 Y50.7863 
G01 X24.7846 Y50.9104 
G01 X24.8878 Y51.0524 
G01 X24.9675 Y51.2088 
G01 X25.0217 Y51.3757 
G01 X25.0492 Y51.5491 
G00 Z2.4000 
G00 X27.5892 Y51.5491 
G01 Z-0.1000 F50.00 
G01 X27.5892 Y51.7246 F100.00 
G01 X27.5617 Y51.8980 
G01 X27.5075 Y52.0650 
G01 X27.4278 Y52.2214 
G01 X27.3246 Y52.3634 
G01 X27.2005 Y52.4875 
G01 X27.0585 Y52.5907 
G01 X26.9021 Y52.6704 
G01 X26.7351 Y52.7246 
G01 X26.5617 Y52.7521 
G01 X26.3862 Y52.7521 
G01 X26.2128 Y52.7246 
G01 X26.0459 Y52.6704 
G01 X25.8895 Y52.5907 
G01 X25.7475 Y52.4875 
G01 X25.6233 Y52.3634 
G01 X25.5202 Y52.2214 
G01 X25.4405 Y52.0650 
G01 X25.3862 Y51.8980 
G01 X25.3588 Y51.7246 
G01 X25.3588 Y51.5491 
G01 X25.3862 Y51.3757 
G01 X25.4405 Y51.2088 
G01 X25.5202 Y51.0524 
G01 X25.6233 Y50.9104 
G01 X25.7475 Y50.7863 
G01 X25.8895 Y50.6831 
G01 X26.0459 Y50.6034 
G01 X26.2128 Y50.5491 
G01 X26.3862 Y50.5217 
G01 X26.5617 Y50.5217 
G01 X26.7351 Y50.5491 
G01 X26.9021 Y50.6034 
G01 X27.0585 Y50.6831 
G01 X27.2005 Y50.7863 
G01 X27.3246 Y50.9104 
G01 X27.4278 Y51.0524 
G01 X27.5075 Y51.2088 
G01 X27.5617 Y51.3757 
G01 X27.5892 Y51.5491 
G00 Z2.4000 
G00 X30.1292 Y51.5491 
G01 Z-0.1000 F50.00 
G01 X30.1292 Y51.7246 F100.00 
G01 X30.1017 Y51.8980 
G01 X30.0475 Y52.0650 
G01 X29.9678 Y52.2214 
G01 X29.8646 Y52.3634 
G01 X29.7405 Y52.4875 
G01 X29.5985 Y52.5907 
G01 X29.4421 Y52.6704 
G01 X29.2751 Y52.7246 
G01 X29.1017 Y52.7521 
G01 X28.9262 Y52.7521 
G01 X28.7528 Y52.7246 
G01 X28.5859 Y52.6704 
G01 X28.4295 Y52.5907 
G01 X28.2875 Y52.4875 
G01 X28.1633 Y52.3634 
G01 X28.0602 Y52.2214 
G01 X27.9805 Y52.0650 
G01 X27.9262 Y51.8980 
G01 X27.8988 Y51.7246 
G01 X27.8988 Y51.5491 
G01 X27.9262 Y51.3757 
G01 X27.9805 Y51.2088 
G01 X28.0602 Y51.0524 
G01 X28.1633 Y50.9104 
G01 X28.2875 Y50.7863 
G01 X28.4295 Y50.6831 
G01 X28.5859 Y50.6034 
G01 X28.7528 Y50.5491 
G01 X28.9262 Y50.5217 
G01 X29.1017 Y50.5217 
G01 X29.2751 Y50.5491 
G01 X29.4421 Y50.6034 
G01 X29.5985 Y50.6831 
G01 X29.7405 Y50.7863 
G01 X29.8646 Y50.9104 
G01 X29.9678 Y51.0524 
G01 X30.0475 Y51.2088 
G01 X30.1017 Y51.3757 
G01 X30.1292 Y51.5491 
G00 Z2.4000 
G00 X35.2092 Y51.5491 
G01 Z-0.1000 F50.00 
G01 X35.2092 Y51.7246 F100.00 
G01 X35.1817 Y51.8980 
G01 X35.1275 Y52.0650 
G01 X35.0478 Y52.2214 
G01 X34.9446 Y52.3634 
G01 X34.8205 Y52.4875 
G01 X34.6785 Y52.5907 
G01 X34.5221 Y52.6704 
G01 X34.3551 Y52.7246 
G01 X34.1817 Y52.7521 
G01 X34.0062 Y52.7521 
G01 X33.8328 Y52.7246 
G01 X33.6659 Y52.6704 
G01 X33.5095 Y52.5907 
G01 X33.3675 Y52.4875 
G01 X33.2433 Y52.3634 
G01 X33.1402 Y52.2214 
G01 X33.0605 Y52.0650 
G01 X33.0062 Y51.8980 
G01 X32.9788 Y51.7246 
G01 X32.9788 Y51.5491 
G01 X33.0062 Y51.3757 
G01 X33.0605 Y51.2088 
G01 X33.1402 Y51.0524 
G01 X33.2433 Y50.9104 
G01 X33.3675 Y50.7863 
G01 X33.5095 Y50.6831 
G01 X33.6659 Y50.6034 
G01 X33.8328 Y50.5491 
G01 X34.0062 Y50.5217 
G01 X34.1817 Y50.5217 
G01 X34.3551 Y50.5491 
G01 X34.5221 Y50.6034 
G01 X34.6785 Y50.6831 
G01 X34.8205 Y50.7863 
G01 X34.9446 Y50.9104 
G01 X35.0478 Y51.0524 
G01 X35.1275 Y51.2088 
G01 X35.1817 Y51.3757 
G01 X35.2092 Y51.5491 
G00 Z2.4000 
G00 X37.7492 Y51.5491 
G01 Z-0.1000 F50.00 
G01 X37.7492 Y51.7246 F100.00 
G01 X37.7217 Y51.8980 
G01 X37.6675 Y52.0650 
G01 X37.5878 Y52.2214 
G01 X37.4846 Y52.3634 
G01 X37.3605 Y52.4875 
G01 X37.2185 Y52.5907 
G01 X37.0621 Y52.6704 
G01 X36.8951 Y52.7246 
G01 X36.7217 Y52.7521 
G01 X36.5462 Y52.7521 
G01 X36.3728 Y52.7246 
G01 X36.2059 Y52.6704 
G01 X36.0495 Y52.5907 
G01 X35.9075 Y52.4875 
G01 X35.7833 Y52.3634 
G01 X35.6802 Y52.2214 
G01 X35.6005 Y52.0650 
G01 X35.5462 Y51.8980 
G01 X35.5188 Y51.7246 
G01 X35.5188 Y51.5491 
G01 X35.5462 Y51.3757 
G01 X35.6005 Y51.2088 
G01 X35.6802 Y51.0524 
G01 X35.7833 Y50.9104 
G01 X35.9075 Y50.7863 
G01 X36.0495 Y50.6831 
G01 X36.2059 Y50.6034 
G01 X36.3728 Y50.5491 
G01 X36.5462 Y50.5217 
G01 X36.7217 Y50.5217 
G01 X36.8951 Y50.5491 
G01 X37.0621 Y50.6034 
G01 X37.2185 Y50.6831 
G01 X37.3605 Y50.7863 
G01 X37.4846 Y50.9104 
G01 X37.5878 Y51.0524 
G01 X37.6675 Y51.2088 
G01 X37.7217 Y51.3757 
G01 X37.7492 Y51.5491 
G00 Z2.4000 
G00 X40.2892 Y51.5491 
G01 Z-0.1000 F50.00 
G01 X40.2892 Y51.7246 F100.00 
G01 X40.2617 Y51.8980 
G01 X40.2075 Y52.0650 
G01 X40.1278 Y52.2214 
G01 X40.0246 Y52.3634 
G01 X39.9005 Y52.4875 
G01 X39.7585 Y52.5907 
G01 X39.6021 Y52.6704 
G01 X39.4351 Y52.7246 
G01 X39.2617 Y52.7521 
G01 X39.0862 Y52.7521 
G01 X38.9128 Y52.7246 
G01 X38.7459 Y52.6704 
G01 X38.5895 Y52.5907 
G01 X38.4475 Y52.4875 
G01 X38.3233 Y52.3634 
G01 X38.2202 Y52.2214 
G01 X38.1405 Y52.0650 
G01 X38.0862 Y51.8980 
G01 X38.0588 Y51.7246 
G01 X38.0588 Y51.5491 
G01 X38.0862 Y51.3757 
G01 X38.1405 Y51.2088 
G01 X38.2202 Y51.0524 
G01 X38.3233 Y50.9104 
G01 X38.4475 Y50.7863 
G01 X38.5895 Y50.6831 
G01 X38.7459 Y50.6034 
G01 X38.9128 Y50.5491 
G01 X39.0862 Y50.5217 
G01 X39.2617 Y50.5217 
G01 X39.4351 Y50.5491 
G01 X39.6021 Y50.6034 
G01 X39.7585 Y50.6831 
G01 X39.9005 Y50.7863 
G01 X40.0246 Y50.9104 
G01 X40.1278 Y51.0524 
G01 X40.2075 Y51.2088 
G01 X40.2617 Y51.3757 
G01 X40.2892 Y51.5491 
G00 Z2.4000 
G00 X42.8292 Y51.5491 
G01 Z-0.1000 F50.00 
G01 X42.8292 Y51.7246 F100.00 
G01 X42.8017 Y51.8980 
G01 X42.7475 Y52.0650 
G01 X42.6678 Y52.2214 
G01 X42.5646 Y52.3634 
G01 X42.4405 Y52.4875 
G01 X42.2985 Y52.5907 
G01 X42.1421 Y52.6704 
G01 X41.9751 Y52.7246 
G01 X41.8017 Y52.7521 
G01 X41.6262 Y52.7521 
G01 X41.4528 Y52.7246 
G01 X41.2859 Y52.6704 
G01 X41.1295 Y52.5907 
G01 X40.9875 Y52.4875 
G01 X40.8633 Y52.3634 
G01 X40.7602 Y52.2214 
G01 X40.6805 Y52.0650 
G01 X40.6262 Y51.8980 
G01 X40.5988 Y51.7246 
G01 X40.5988 Y51.5491 
G01 X40.6262 Y51.3757 
G01 X40.6805 Y51.2088 
G01 X40.7602 Y51.0524 
G01 X40.8633 Y50.9104 
G01 X40.9875 Y50.7863 
G01 X41.1295 Y50.6831 
G01 X41.2859 Y50.6034 
G01 X41.4528 Y50.5491 
G01 X41.6262 Y50.5217 
G01 X41.8017 Y50.5217 
G01 X41.9751 Y50.5491 
G01 X42.1421 Y50.6034 
G01 X42.2985 Y50.6831 
G01 X42.4405 Y50.7863 
G01 X42.5646 Y50.9104 
G01 X42.6678 Y51.0524 
G01 X42.7475 Y51.2088 
G01 X42.8017 Y51.3757 
G01 X42.8292 Y51.5491 
G00 Z2.4000 
G00 X45.3692 Y51.5491 
G01 Z-0.1000 F50.00 
G01 X45.3692 Y51.7246 F100.00 
G01 X45.3417 Y51.8980 
G01 X45.2875 Y52.0650 
G01 X45.2078 Y52.2214 
G01 X45.1046 Y52.3634 
G01 X44.9805 Y52.4875 
G01 X44.8385 Y52.5907 
G01 X44.6821 Y52.6704 
G01 X44.5151 Y52.7246 
G01 X44.3417 Y52.7521 
G01 X44.1662 Y52.7521 
G01 X43.9928 Y52.7246 
G01 X43.8259 Y52.6704 
G01 X43.6695 Y52.5907 
G01 X43.5275 Y52.4875 
G01 X43.4033 Y52.3634 
G01 X43.3002 Y52.2214 
G01 X43.2205 Y52.0650 
G01 X43.1662 Y51.8980 
G01 X43.1388 Y51.7246 
G01 X43.1388 Y51.5491 
G01 X43.1662 Y51.3757 
G01 X43.2205 Y51.2088 
G01 X43.3002 Y51.0524 
G01 X43.4033 Y50.9104 
G01 X43.5275 Y50.7863 
G01 X43.6695 Y50.6831 
G01 X43.8259 Y50.6034 
G01 X43.9928 Y50.5491 
G01 X44.1662 Y50.5217 
G01 X44.3417 Y50.5217 
G01 X44.5151 Y50.5491 
G01 X44.6821 Y50.6034 
G01 X44.8385 Y50.6831 
G01 X44.9805 Y50.7863 
G01 X45.1046 Y50.9104 
G01 X45.2078 Y51.0524 
G01 X45.2875 Y51.2088 
G01 X45.3417 Y51.3757 
G01 X45.3692 Y51.5491 
G00 Z2.4000 
G00 X47.9092 Y51.5491 
G01 Z-0.1000 F50.00 
G01 X47.9092 Y51.7246 F100.00 
G01 X47.8817 Y51.8980 
G01 X47.8275 Y52.0650 
G01 X47.7478 Y52.2214 
G01 X47.6446 Y52.3634 
G01 X47.5205 Y52.4875 
G01 X47.3785 Y52.5907 
G01 X47.2221 Y52.6704 
G01 X47.0551 Y52.7246 
G01 X46.8817 Y52.7521 
G01 X46.7062 Y52.7521 
G01 X46.5328 Y52.7246 
G01 X46.3659 Y52.6704 
G01 X46.2095 Y52.5907 
G01 X46.0675 Y52.4875 
G01 X45.9433 Y52.3634 
G01 X45.8402 Y52.2214 
G01 X45.7605 Y52.0650 
G01 X45.7062 Y51.8980 
G01 X45.6788 Y51.7246 
G01 X45.6788 Y51.5491 
G01 X45.7062 Y51.3757 
G01 X45.7605 Y51.2088 
G01 X45.8402 Y51.0524 
G01 X45.9433 Y50.9104 
G01 X46.0675 Y50.7863 
G01 X46.2095 Y50.6831 
G01 X46.3659 Y50.6034 
G01 X46.5328 Y50.5491 
G01 X46.7062 Y50.5217 
G01 X46.8817 Y50.5217 
G01 X47.0551 Y50.5491 
G01 X47.2221 Y50.6034 
G01 X47.3785 Y50.6831 
G01 X47.5205 Y50.7863 
G01 X47.6446 Y50.9104 
G01 X47.7478 Y51.0524 
G01 X47.8275 Y51.2088 
G01 X47.8817 Y51.3757 
G01 X47.9092 Y51.5491 
G00 Z2.4000 
G00 X50.4492 Y51.5491 
G01 Z-0.1000 F50.00 
G01 X50.4492 Y51.7246 F100.00 
G01 X50.4217 Y51.8980 
G01 X50.3675 Y52.0650 
G01 X50.2878 Y52.2214 
G01 X50.1846 Y52.3634 
G01 X50.0605 Y52.4875 
G01 X49.9185 Y52.5907 
G01 X49.7621 Y52.6704 
G01 X49.5951 Y52.7246 
G01 X49.4217 Y52.7521 
G01 X49.2462 Y52.7521 
G01 X49.0728 Y52.7246 
G01 X48.9059 Y52.6704 
G01 X48.7495 Y52.5907 
G01 X48.6075 Y52.4875 
G01 X48.4833 Y52.3634 
G01 X48.3802 Y52.2214 
G01 X48.3005 Y52.0650 
G01 X48.2462 Y51.8980 
G01 X48.2188 Y51.7246 
G01 X48.2188 Y51.5491 
G01 X48.2462 Y51.3757 
G01 X48.3005 Y51.2088 
G01 X48.3802 Y51.0524 
G01 X48.4833 Y50.9104 
G01 X48.6075 Y50.7863 
G01 X48.7495 Y50.6831 
G01 X48.9059 Y50.6034 
G01 X49.0728 Y50.5491 
G01 X49.2462 Y50.5217 
G01 X49.4217 Y50.5217 
G01 X49.5951 Y50.5491 
G01 X49.7621 Y50.6034 
G01 X49.9185 Y50.6831 
G01 X50.0605 Y50.7863 
G01 X50.1846 Y50.9104 
G01 X50.2878 Y51.0524 
G01 X50.3675 Y51.2088 
G01 X50.4217 Y51.3757 
G01 X50.4492 Y51.5491 
G00 Z2.4000 
G00 X52.9892 Y51.5491 
G01 Z-0.1000 F50.00 
G01 X52.9892 Y51.7246 F100.00 
G01 X52.9617 Y51.8980 
G01 X52.9075 Y52.0650 
G01 X52.8278 Y52.2214 
G01 X52.7246 Y52.3634 
G01 X52.6005 Y52.4875 
G01 X52.4585 Y52.5907 
G01 X52.3021 Y52.6704 
G01 X52.1351 Y52.7246 
G01 X51.9617 Y52.7521 
G01 X51.7862 Y52.7521 
G01 X51.6128 Y52.7246 
G01 X51.4459 Y52.6704 
G01 X51.2895 Y52.5907 
G01 X51.1475 Y52.4875 
G01 X51.0233 Y52.3634 
G01 X50.9202 Y52.2214 
G01 X50.8405 Y52.0650 
G01 X50.7862 Y51.8980 
G01 X50.7588 Y51.7246 
G01 X50.7588 Y51.5491 
G01 X50.7862 Y51.3757 
G01 X50.8405 Y51.2088 
G01 X50.9202 Y51.0524 
G01 X51.0233 Y50.9104 
G01 X51.1475 Y50.7863 
G01 X51.2895 Y50.6831 
G01 X51.4459 Y50.6034 
G01 X51.6128 Y50.5491 
G01 X51.7862 Y50.5217 
G01 X51.9617 Y50.5217 
G01 X52.1351 Y50.5491 
G01 X52.3021 Y50.6034 
G01 X52.4585 Y50.6831 
G01 X52.6005 Y50.7863 
G01 X52.7246 Y50.9104 
G01 X52.8278 Y51.0524 
G01 X52.9075 Y51.2088 
G01 X52.9617 Y51.3757 
G01 X52.9892 Y51.5491 
G00 Z2.4000 
G00 X52.9892 Y54.0891 
G01 Z-0.1000 F50.00 
G01 X52.9892 Y54.2646 F100.00 
G01 X52.9617 Y54.4380 
G01 X52.9075 Y54.6050 
G01 X52.8278 Y54.7614 
G01 X52.7246 Y54.9034 
G01 X52.6005 Y55.0275 
G01 X52.4585 Y55.1307 
G01 X52.3021 Y55.2104 
G01 X52.1351 Y55.2646 
G01 X51.9617 Y55.2921 
G01 X51.7862 Y55.2921 
G01 X51.6128 Y55.2646 
G01 X51.4459 Y55.2104 
G01 X51.2895 Y55.1307 
G01 X51.1475 Y55.0275 
G01 X51.0233 Y54.9034 
G01 X50.9202 Y54.7614 
G01 X50.8405 Y54.6050 
G01 X50.7862 Y54.4380 
G01 X50.7588 Y54.2646 
G01 X50.7588 Y54.0891 
G01 X50.7862 Y53.9157 
G01 X50.8405 Y53.7488 
G01 X50.9202 Y53.5924 
G01 X51.0233 Y53.4504 
G01 X51.1475 Y53.3263 
G01 X51.2895 Y53.2231 
G01 X51.4459 Y53.1434 
G01 X51.6128 Y53.0891 
G01 X51.7862 Y53.0617 
G01 X51.9617 Y53.0617 
G01 X52.1351 Y53.0891 
G01 X52.3021 Y53.1434 
G01 X52.4585 Y53.2231 
G01 X52.6005 Y53.3263 
G01 X52.7246 Y53.4504 
G01 X52.8278 Y53.5924 
G01 X52.9075 Y53.7488 
G01 X52.9617 Y53.9157 
G01 X52.9892 Y54.0891 
G00 Z2.4000 
G00 X50.4492 Y54.0891 
G01 Z-0.1000 F50.00 
G01 X50.4492 Y54.2646 F100.00 
G01 X50.4217 Y54.4380 
G01 X50.3675 Y54.6050 
G01 X50.2878 Y54.7614 
G01 X50.1846 Y54.9034 
G01 X50.0605 Y55.0275 
G01 X49.9185 Y55.1307 
G01 X49.7621 Y55.2104 
G01 X49.5951 Y55.2646 
G01 X49.4217 Y55.2921 
G01 X49.2462 Y55.2921 
G01 X49.0728 Y55.2646 
G01 X48.9059 Y55.2104 
G01 X48.7495 Y55.1307 
G01 X48.6075 Y55.0275 
G01 X48.4833 Y54.9034 
G01 X48.3802 Y54.7614 
G01 X48.3005 Y54.6050 
G01 X48.2462 Y54.4380 
G01 X48.2188 Y54.2646 
G01 X48.2188 Y54.0891 
G01 X48.2462 Y53.9157 
G01 X48.3005 Y53.7488 
G01 X48.3802 Y53.5924 
G01 X48.4833 Y53.4504 
G01 X48.6075 Y53.3263 
G01 X48.7495 Y53.2231 
G01 X48.9059 Y53.1434 
G01 X49.0728 Y53.0891 
G01 X49.2462 Y53.0617 
G01 X49.4217 Y53.0617 
G01 X49.5951 Y53.0891 
G01 X49.7621 Y53.1434 
G01 X49.9185 Y53.2231 
G01 X50.0605 Y53.3263 
G01 X50.1846 Y53.4504 
G01 X50.2878 Y53.5924 
G01 X50.3675 Y53.7488 
G01 X50.4217 Y53.9157 
G01 X50.4492 Y54.0891 
G00 Z2.4000 
G00 X47.9092 Y54.0891 
G01 Z-0.1000 F50.00 
G01 X47.9092 Y54.2646 F100.00 
G01 X47.8817 Y54.4380 
G01 X47.8275 Y54.6050 
G01 X47.7478 Y54.7614 
G01 X47.6446 Y54.9034 
G01 X47.5205 Y55.0275 
G01 X47.3785 Y55.1307 
G01 X47.2221 Y55.2104 
G01 X47.0551 Y55.2646 
G01 X46.8817 Y55.2921 
G01 X46.7062 Y55.2921 
G01 X46.5328 Y55.2646 
G01 X46.3659 Y55.2104 
G01 X46.2095 Y55.1307 
G01 X46.0675 Y55.0275 
G01 X45.9433 Y54.9034 
G01 X45.8402 Y54.7614 
G01 X45.7605 Y54.6050 
G01 X45.7062 Y54.4380 
G01 X45.6788 Y54.2646 
G01 X45.6788 Y54.0891 
G01 X45.7062 Y53.9157 
G01 X45.7605 Y53.7488 
G01 X45.8402 Y53.5924 
G01 X45.9433 Y53.4504 
G01 X46.0675 Y53.3263 
G01 X46.2095 Y53.2231 
G01 X46.3659 Y53.1434 
G01 X46.5328 Y53.0891 
G01 X46.7062 Y53.0617 
G01 X46.8817 Y53.0617 
G01 X47.0551 Y53.0891 
G01 X47.2221 Y53.1434 
G01 X47.3785 Y53.2231 
G01 X47.5205 Y53.3263 
G01 X47.6446 Y53.4504 
G01 X47.7478 Y53.5924 
G01 X47.8275 Y53.7488 
G01 X47.8817 Y53.9157 
G01 X47.9092 Y54.0891 
G00 Z2.4000 
G00 X45.3692 Y54.0891 
G01 Z-0.1000 F50.00 
G01 X45.3692 Y54.2646 F100.00 
G01 X45.3417 Y54.4380 
G01 X45.2875 Y54.6050 
G01 X45.2078 Y54.7614 
G01 X45.1046 Y54.9034 
G01 X44.9805 Y55.0275 
G01 X44.8385 Y55.1307 
G01 X44.6821 Y55.2104 
G01 X44.5151 Y55.2646 
G01 X44.3417 Y55.2921 
G01 X44.1662 Y55.2921 
G01 X43.9928 Y55.2646 
G01 X43.8259 Y55.2104 
G01 X43.6695 Y55.1307 
G01 X43.5275 Y55.0275 
G01 X43.4033 Y54.9034 
G01 X43.3002 Y54.7614 
G01 X43.2205 Y54.6050 
G01 X43.1662 Y54.4380 
G01 X43.1388 Y54.2646 
G01 X43.1388 Y54.0891 
G01 X43.1662 Y53.9157 
G01 X43.2205 Y53.7488 
G01 X43.3002 Y53.5924 
G01 X43.4033 Y53.4504 
G01 X43.5275 Y53.3263 
G01 X43.6695 Y53.2231 
G01 X43.8259 Y53.1434 
G01 X43.9928 Y53.0891 
G01 X44.1662 Y53.0617 
G01 X44.3417 Y53.0617 
G01 X44.5151 Y53.0891 
G01 X44.6821 Y53.1434 
G01 X44.8385 Y53.2231 
G01 X44.9805 Y53.3263 
G01 X45.1046 Y53.4504 
G01 X45.2078 Y53.5924 
G01 X45.2875 Y53.7488 
G01 X45.3417 Y53.9157 
G01 X45.3692 Y54.0891 
G00 Z2.4000 
G00 X42.8292 Y54.0891 
G01 Z-0.1000 F50.00 
G01 X42.8292 Y54.2646 F100.00 
G01 X42.8017 Y54.4380 
G01 X42.7475 Y54.6050 
G01 X42.6678 Y54.7614 
G01 X42.5646 Y54.9034 
G01 X42.4405 Y55.0275 
G01 X42.2985 Y55.1307 
G01 X42.1421 Y55.2104 
G01 X41.9751 Y55.2646 
G01 X41.8017 Y55.2921 
G01 X41.6262 Y55.2921 
G01 X41.4528 Y55.2646 
G01 X41.2859 Y55.2104 
G01 X41.1295 Y55.1307 
G01 X40.9875 Y55.0275 
G01 X40.8633 Y54.9034 
G01 X40.7602 Y54.7614 
G01 X40.6805 Y54.6050 
G01 X40.6262 Y54.4380 
G01 X40.5988 Y54.2646 
G01 X40.5988 Y54.0891 
G01 X40.6262 Y53.9157 
G01 X40.6805 Y53.7488 
G01 X40.7602 Y53.5924 
G01 X40.8633 Y53.4504 
G01 X40.9875 Y53.3263 
G01 X41.1295 Y53.2231 
G01 X41.2859 Y53.1434 
G01 X41.4528 Y53.0891 
G01 X41.6262 Y53.0617 
G01 X41.8017 Y53.0617 
G01 X41.9751 Y53.0891 
G01 X42.1421 Y53.1434 
G01 X42.2985 Y53.2231 
G01 X42.4405 Y53.3263 
G01 X42.5646 Y53.4504 
G01 X42.6678 Y53.5924 
G01 X42.7475 Y53.7488 
G01 X42.8017 Y53.9157 
G01 X42.8292 Y54.0891 
G00 Z2.4000 
G00 X40.2892 Y54.0891 
G01 Z-0.1000 F50.00 
G01 X40.2892 Y54.2646 F100.00 
G01 X40.2617 Y54.4380 
G01 X40.2075 Y54.6050 
G01 X40.1278 Y54.7614 
G01 X40.0246 Y54.9034 
G01 X39.9005 Y55.0275 
G01 X39.7585 Y55.1307 
G01 X39.6021 Y55.2104 
G01 X39.4351 Y55.2646 
G01 X39.2617 Y55.2921 
G01 X39.0862 Y55.2921 
G01 X38.9128 Y55.2646 
G01 X38.7459 Y55.2104 
G01 X38.5895 Y55.1307 
G01 X38.4475 Y55.0275 
G01 X38.3233 Y54.9034 
G01 X38.2202 Y54.7614 
G01 X38.1405 Y54.6050 
G01 X38.0862 Y54.4380 
G01 X38.0588 Y54.2646 
G01 X38.0588 Y54.0891 
G01 X38.0862 Y53.9157 
G01 X38.1405 Y53.7488 
G01 X38.2202 Y53.5924 
G01 X38.3233 Y53.4504 
G01 X38.4475 Y53.3263 
G01 X38.5895 Y53.2231 
G01 X38.7459 Y53.1434 
G01 X38.9128 Y53.0891 
G01 X39.0862 Y53.0617 
G01 X39.2617 Y53.0617 
G01 X39.4351 Y53.0891 
G01 X39.6021 Y53.1434 
G01 X39.7585 Y53.2231 
G01 X39.9005 Y53.3263 
G01 X40.0246 Y53.4504 
G01 X40.1278 Y53.5924 
G01 X40.2075 Y53.7488 
G01 X40.2617 Y53.9157 
G01 X40.2892 Y54.0891 
G00 Z2.4000 
G00 X37.7492 Y54.0891 
G01 Z-0.1000 F50.00 
G01 X37.7492 Y54.2646 F100.00 
G01 X37.7217 Y54.4380 
G01 X37.6675 Y54.6050 
G01 X37.5878 Y54.7614 
G01 X37.4846 Y54.9034 
G01 X37.3605 Y55.0275 
G01 X37.2185 Y55.1307 
G01 X37.0621 Y55.2104 
G01 X36.8951 Y55.2646 
G01 X36.7217 Y55.2921 
G01 X36.5462 Y55.2921 
G01 X36.3728 Y55.2646 
G01 X36.2059 Y55.2104 
G01 X36.0495 Y55.1307 
G01 X35.9075 Y55.0275 
G01 X35.7833 Y54.9034 
G01 X35.6802 Y54.7614 
G01 X35.6005 Y54.6050 
G01 X35.5462 Y54.4380 
G01 X35.5188 Y54.2646 
G01 X35.5188 Y54.0891 
G01 X35.5462 Y53.9157 
G01 X35.6005 Y53.7488 
G01 X35.6802 Y53.5924 
G01 X35.7833 Y53.4504 
G01 X35.9075 Y53.3263 
G01 X36.0495 Y53.2231 
G01 X36.2059 Y53.1434 
G01 X36.3728 Y53.0891 
G01 X36.5462 Y53.0617 
G01 X36.7217 Y53.0617 
G01 X36.8951 Y53.0891 
G01 X37.0621 Y53.1434 
G01 X37.2185 Y53.2231 
G01 X37.3605 Y53.3263 
G01 X37.4846 Y53.4504 
G01 X37.5878 Y53.5924 
G01 X37.6675 Y53.7488 
G01 X37.7217 Y53.9157 
G01 X37.7492 Y54.0891 
G00 Z2.4000 
G00 X35.2092 Y54.0891 
G01 Z-0.1000 F50.00 
G01 X35.2092 Y54.2646 F100.00 
G01 X35.1817 Y54.4380 
G01 X35.1275 Y54.6050 
G01 X35.0478 Y54.7614 
G01 X34.9446 Y54.9034 
G01 X34.8205 Y55.0275 
G01 X34.6785 Y55.1307 
G01 X34.5221 Y55.2104 
G01 X34.3551 Y55.2646 
G01 X34.1817 Y55.2921 
G01 X34.0062 Y55.2921 
G01 X33.8328 Y55.2646 
G01 X33.6659 Y55.2104 
G01 X33.5095 Y55.1307 
G01 X33.3675 Y55.0275 
G01 X33.2433 Y54.9034 
G01 X33.1402 Y54.7614 
G01 X33.0605 Y54.6050 
G01 X33.0062 Y54.4380 
G01 X32.9788 Y54.2646 
G01 X32.9788 Y54.0891 
G01 X33.0062 Y53.9157 
G01 X33.0605 Y53.7488 
G01 X33.1402 Y53.5924 
G01 X33.2433 Y53.4504 
G01 X33.3675 Y53.3263 
G01 X33.5095 Y53.2231 
G01 X33.6659 Y53.1434 
G01 X33.8328 Y53.0891 
G01 X34.0062 Y53.0617 
G01 X34.1817 Y53.0617 
G01 X34.3551 Y53.0891 
G01 X34.5221 Y53.1434 
G01 X34.6785 Y53.2231 
G01 X34.8205 Y53.3263 
G01 X34.9446 Y53.4504 
G01 X35.0478 Y53.5924 
G01 X35.1275 Y53.7488 
G01 X35.1817 Y53.9157 
G01 X35.2092 Y54.0891 
G00 Z2.4000 
G00 X32.6692 Y54.0891 
G01 Z-0.1000 F50.00 
G01 X32.6692 Y54.2646 F100.00 
G01 X32.6417 Y54.4380 
G01 X32.5875 Y54.6050 
G01 X32.5078 Y54.7614 
G01 X32.4046 Y54.9034 
G01 X32.2805 Y55.0275 
G01 X32.1385 Y55.1307 
G01 X31.9821 Y55.2104 
G01 X31.8151 Y55.2646 
G01 X31.6417 Y55.2921 
G01 X31.4662 Y55.2921 
G01 X31.2928 Y55.2646 
G01 X31.1259 Y55.2104 
G01 X30.9695 Y55.1307 
G01 X30.8275 Y55.0275 
G01 X30.7033 Y54.9034 
G01 X30.6002 Y54.7614 
G01 X30.5205 Y54.6050 
G01 X30.4662 Y54.4380 
G01 X30.4388 Y54.2646 
G01 X30.4388 Y54.0891 
G01 X30.4662 Y53.9157 
G01 X30.5205 Y53.7488 
G01 X30.6002 Y53.5924 
G01 X30.7033 Y53.4504 
G01 X30.8275 Y53.3263 
G01 X30.9695 Y53.2231 
G01 X31.1259 Y53.1434 
G01 X31.2928 Y53.0891 
G01 X31.4662 Y53.0617 
G01 X31.6417 Y53.0617 
G01 X31.8151 Y53.0891 
G01 X31.9821 Y53.1434 
G01 X32.1385 Y53.2231 
G01 X32.2805 Y53.3263 
G01 X32.4046 Y53.4504 
G01 X32.5078 Y53.5924 
G01 X32.5875 Y53.7488 
G01 X32.6417 Y53.9157 
G01 X32.6692 Y54.0891 
G00 Z2.4000 
G00 X30.1292 Y54.0891 
G01 Z-0.1000 F50.00 
G01 X30.1292 Y54.2646 F100.00 
G01 X30.1017 Y54.4380 
G01 X30.0475 Y54.6050 
G01 X29.9678 Y54.7614 
G01 X29.8646 Y54.9034 
G01 X29.7405 Y55.0275 
G01 X29.5985 Y55.1307 
G01 X29.4421 Y55.2104 
G01 X29.2751 Y55.2646 
G01 X29.1017 Y55.2921 
G01 X28.9262 Y55.2921 
G01 X28.7528 Y55.2646 
G01 X28.5859 Y55.2104 
G01 X28.4295 Y55.1307 
G01 X28.2875 Y55.0275 
G01 X28.1633 Y54.9034 
G01 X28.0602 Y54.7614 
G01 X27.9805 Y54.6050 
G01 X27.9262 Y54.4380 
G01 X27.8988 Y54.2646 
G01 X27.8988 Y54.0891 
G01 X27.9262 Y53.9157 
G01 X27.9805 Y53.7488 
G01 X28.0602 Y53.5924 
G01 X28.1633 Y53.4504 
G01 X28.2875 Y53.3263 
G01 X28.4295 Y53.2231 
G01 X28.5859 Y53.1434 
G01 X28.7528 Y53.0891 
G01 X28.9262 Y53.0617 
G01 X29.1017 Y53.0617 
G01 X29.2751 Y53.0891 
G01 X29.4421 Y53.1434 
G01 X29.5985 Y53.2231 
G01 X29.7405 Y53.3263 
G01 X29.8646 Y53.4504 
G01 X29.9678 Y53.5924 
G01 X30.0475 Y53.7488 
G01 X30.1017 Y53.9157 
G01 X30.1292 Y54.0891 
G00 Z2.4000 
G00 X27.5892 Y54.0891 
G01 Z-0.1000 F50.00 
G01 X27.5892 Y54.2646 F100.00 
G01 X27.5617 Y54.4380 
G01 X27.5075 Y54.6050 
G01 X27.4278 Y54.7614 
G01 X27.3246 Y54.9034 
G01 X27.2005 Y55.0275 
G01 X27.0585 Y55.1307 
G01 X26.9021 Y55.2104 
G01 X26.7351 Y55.2646 
G01 X26.5617 Y55.2921 
G01 X26.3862 Y55.2921 
G01 X26.2128 Y55.2646 
G01 X26.0459 Y55.2104 
G01 X25.8895 Y55.1307 
G01 X25.7475 Y55.0275 
G01 X25.6233 Y54.9034 
G01 X25.5202 Y54.7614 
G01 X25.4405 Y54.6050 
G01 X25.3862 Y54.4380 
G01 X25.3588 Y54.2646 
G01 X25.3588 Y54.0891 
G01 X25.3862 Y53.9157 
G01 X25.4405 Y53.7488 
G01 X25.5202 Y53.5924 
G01 X25.6233 Y53.4504 
G01 X25.7475 Y53.3263 
G01 X25.8895 Y53.2231 
G01 X26.0459 Y53.1434 
G01 X26.2128 Y53.0891 
G01 X26.3862 Y53.0617 
G01 X26.5617 Y53.0617 
G01 X26.7351 Y53.0891 
G01 X26.9021 Y53.1434 
G01 X27.0585 Y53.2231 
G01 X27.2005 Y53.3263 
G01 X27.3246 Y53.4504 
G01 X27.4278 Y53.5924 
G01 X27.5075 Y53.7488 
G01 X27.5617 Y53.9157 
G01 X27.5892 Y54.0891 
G00 Z2.4000 
G00 X25.0492 Y54.0891 
G01 Z-0.1000 F50.00 
G01 X25.0492 Y54.2646 F100.00 
G01 X25.0217 Y54.4380 
G01 X24.9675 Y54.6050 
G01 X24.8878 Y54.7614 
G01 X24.7846 Y54.9034 
G01 X24.6605 Y55.0275 
G01 X24.5185 Y55.1307 
G01 X24.3621 Y55.2104 
G01 X24.1951 Y55.2646 
G01 X24.0217 Y55.2921 
G01 X23.8462 Y55.2921 
G01 X23.6728 Y55.2646 
G01 X23.5059 Y55.2104 
G01 X23.3495 Y55.1307 
G01 X23.2075 Y55.0275 
G01 X23.0833 Y54.9034 
G01 X22.9802 Y54.7614 
G01 X22.9005 Y54.6050 
G01 X22.8462 Y54.4380 
G01 X22.8188 Y54.2646 
G01 X22.8188 Y54.0891 
G01 X22.8462 Y53.9157 
G01 X22.9005 Y53.7488 
G01 X22.9802 Y53.5924 
G01 X23.0833 Y53.4504 
G01 X23.2075 Y53.3263 
G01 X23.3495 Y53.2231 
G01 X23.5059 Y53.1434 
G01 X23.6728 Y53.0891 
G01 X23.8462 Y53.0617 
G01 X24.0217 Y53.0617 
G01 X24.1951 Y53.0891 
G01 X24.3621 Y53.1434 
G01 X24.5185 Y53.2231 
G01 X24.6605 Y53.3263 
G01 X24.7846 Y53.4504 
G01 X24.8878 Y53.5924 
G01 X24.9675 Y53.7488 
G01 X25.0217 Y53.9157 
G01 X25.0492 Y54.0891 
G00 Z2.4000 
G00 X55.5292 Y51.5491 
G01 Z-0.1000 F50.00 
G01 X55.5292 Y51.7246 F100.00 
G01 X55.5017 Y51.8980 
G01 X55.4475 Y52.0650 
G01 X55.3678 Y52.2214 
G01 X55.2646 Y52.3634 
G01 X55.1405 Y52.4875 
G01 X54.9985 Y52.5907 
G01 X54.8421 Y52.6704 
G01 X54.6751 Y52.7246 
G01 X54.5017 Y52.7521 
G01 X54.3262 Y52.7521 
G01 X54.1528 Y52.7246 
G01 X53.9859 Y52.6704 
G01 X53.8295 Y52.5907 
G01 X53.6875 Y52.4875 
G01 X53.5633 Y52.3634 
G01 X53.4602 Y52.2214 
G01 X53.3805 Y52.0650 
G01 X53.3262 Y51.8980 
G01 X53.2988 Y51.7246 
G01 X53.2988 Y51.5491 
G01 X53.3262 Y51.3757 
G01 X53.3805 Y51.2088 
G01 X53.4602 Y51.0524 
G01 X53.5633 Y50.9104 
G01 X53.6875 Y50.7863 
G01 X53.8295 Y50.6831 
G01 X53.9859 Y50.6034 
G01 X54.1528 Y50.5491 
G01 X54.3262 Y50.5217 
G01 X54.5017 Y50.5217 
G01 X54.6751 Y50.5491 
G01 X54.8421 Y50.6034 
G01 X54.9985 Y50.6831 
G01 X55.1405 Y50.7863 
G01 X55.2646 Y50.9104 
G01 X55.3678 Y51.0524 
G01 X55.4475 Y51.2088 
G01 X55.5017 Y51.3757 
G01 X55.5292 Y51.5491 
G00 Z2.4000 
G00 X55.5292 Y54.0891 
G01 Z-0.1000 F50.00 
G01 X55.5292 Y54.2646 F100.00 
G01 X55.5017 Y54.4380 
G01 X55.4475 Y54.6050 
G01 X55.3678 Y54.7614 
G01 X55.2646 Y54.9034 
G01 X55.1405 Y55.0275 
G01 X54.9985 Y55.1307 
G01 X54.8421 Y55.2104 
G01 X54.6751 Y55.2646 
G01 X54.5017 Y55.2921 
G01 X54.3262 Y55.2921 
G01 X54.1528 Y55.2646 
G01 X53.9859 Y55.2104 
G01 X53.8295 Y55.1307 
G01 X53.6875 Y55.0275 
G01 X53.5633 Y54.9034 
G01 X53.4602 Y54.7614 
G01 X53.3805 Y54.6050 
G01 X53.3262 Y54.4380 
G01 X53.2988 Y54.2646 
G01 X53.2988 Y54.0891 
G01 X53.3262 Y53.9157 
G01 X53.3805 Y53.7488 
G01 X53.4602 Y53.5924 
G01 X53.5633 Y53.4504 
G01 X53.6875 Y53.3263 
G01 X53.8295 Y53.2231 
G01 X53.9859 Y53.1434 
G01 X54.1528 Y53.0891 
G01 X54.3262 Y53.0617 
G01 X54.5017 Y53.0617 
G01 X54.6751 Y53.0891 
G01 X54.8421 Y53.1434 
G01 X54.9985 Y53.2231 
G01 X55.1405 Y53.3263 
G01 X55.2646 Y53.4504 
G01 X55.3678 Y53.5924 
G01 X55.4475 Y53.7488 
G01 X55.5017 Y53.9157 
G01 X55.5292 Y54.0891 
G00 Z2.4000 
G00 X58.0692 Y51.5491 
G01 Z-0.1000 F50.00 
G01 X58.0692 Y51.7246 F100.00 
G01 X58.0417 Y51.8980 
G01 X57.9875 Y52.0650 
G01 X57.9078 Y52.2214 
G01 X57.8046 Y52.3634 
G01 X57.6805 Y52.4875 
G01 X57.5385 Y52.5907 
G01 X57.3821 Y52.6704 
G01 X57.2151 Y52.7246 
G01 X57.0417 Y52.7521 
G01 X56.8662 Y52.7521 
G01 X56.6928 Y52.7246 
G01 X56.5259 Y52.6704 
G01 X56.3695 Y52.5907 
G01 X56.2275 Y52.4875 
G01 X56.1033 Y52.3634 
G01 X56.0002 Y52.2214 
G01 X55.9205 Y52.0650 
G01 X55.8662 Y51.8980 
G01 X55.8388 Y51.7246 
G01 X55.8388 Y51.5491 
G01 X55.8662 Y51.3757 
G01 X55.9205 Y51.2088 
G01 X56.0002 Y51.0524 
G01 X56.1033 Y50.9104 
G01 X56.2275 Y50.7863 
G01 X56.3695 Y50.6831 
G01 X56.5259 Y50.6034 
G01 X56.6928 Y50.5491 
G01 X56.8662 Y50.5217 
G01 X57.0417 Y50.5217 
G01 X57.2151 Y50.5491 
G01 X57.3821 Y50.6034 
G01 X57.5385 Y50.6831 
G01 X57.6805 Y50.7863 
G01 X57.8046 Y50.9104 
G01 X57.9078 Y51.0524 
G01 X57.9875 Y51.2088 
G01 X58.0417 Y51.3757 
G01 X58.0692 Y51.5491 
G00 Z2.4000 
G00 X58.0692 Y54.0891 
G01 Z-0.1000 F50.00 
G01 X58.0692 Y54.2646 F100.00 
G01 X58.0417 Y54.4380 
G01 X57.9875 Y54.6050 
G01 X57.9078 Y54.7614 
G01 X57.8046 Y54.9034 
G01 X57.6805 Y55.0275 
G01 X57.5385 Y55.1307 
G01 X57.3821 Y55.2104 
G01 X57.2151 Y55.2646 
G01 X57.0417 Y55.2921 
G01 X56.8662 Y55.2921 
G01 X56.6928 Y55.2646 
G01 X56.5259 Y55.2104 
G01 X56.3695 Y55.1307 
G01 X56.2275 Y55.0275 
G01 X56.1033 Y54.9034 
G01 X56.0002 Y54.7614 
G01 X55.9205 Y54.6050 
G01 X55.8662 Y54.4380 
G01 X55.8388 Y54.2646 
G01 X55.8388 Y54.0891 
G01 X55.8662 Y53.9157 
G01 X55.9205 Y53.7488 
G01 X56.0002 Y53.5924 
G01 X56.1033 Y53.4504 
G01 X56.2275 Y53.3263 
G01 X56.3695 Y53.2231 
G01 X56.5259 Y53.1434 
G01 X56.6928 Y53.0891 
G01 X56.8662 Y53.0617 
G01 X57.0417 Y53.0617 
G01 X57.2151 Y53.0891 
G01 X57.3821 Y53.1434 
G01 X57.5385 Y53.2231 
G01 X57.6805 Y53.3263 
G01 X57.8046 Y53.4504 
G01 X57.9078 Y53.5924 
G01 X57.9875 Y53.7488 
G01 X58.0417 Y53.9157 
G01 X58.0692 Y54.0891 
G00 Z2.4000 
G00 X60.6092 Y51.5491 
G01 Z-0.1000 F50.00 
G01 X60.6092 Y51.7246 F100.00 
G01 X60.5817 Y51.8980 
G01 X60.5275 Y52.0650 
G01 X60.4478 Y52.2214 
G01 X60.3446 Y52.3634 
G01 X60.2205 Y52.4875 
G01 X60.0785 Y52.5907 
G01 X59.9221 Y52.6704 
G01 X59.7551 Y52.7246 
G01 X59.5817 Y52.7521 
G01 X59.4062 Y52.7521 
G01 X59.2328 Y52.7246 
G01 X59.0659 Y52.6704 
G01 X58.9095 Y52.5907 
G01 X58.7675 Y52.4875 
G01 X58.6433 Y52.3634 
G01 X58.5402 Y52.2214 
G01 X58.4605 Y52.0650 
G01 X58.4062 Y51.8980 
G01 X58.3788 Y51.7246 
G01 X58.3788 Y51.5491 
G01 X58.4062 Y51.3757 
G01 X58.4605 Y51.2088 
G01 X58.5402 Y51.0524 
G01 X58.6433 Y50.9104 
G01 X58.7675 Y50.7863 
G01 X58.9095 Y50.6831 
G01 X59.0659 Y50.6034 
G01 X59.2328 Y50.5491 
G01 X59.4062 Y50.5217 
G01 X59.5817 Y50.5217 
G01 X59.7551 Y50.5491 
G01 X59.9221 Y50.6034 
G01 X60.0785 Y50.6831 
G01 X60.2205 Y50.7863 
G01 X60.3446 Y50.9104 
G01 X60.4478 Y51.0524 
G01 X60.5275 Y51.2088 
G01 X60.5817 Y51.3757 
G01 X60.6092 Y51.5491 
G00 Z2.4000 
G00 X60.6092 Y54.0891 
G01 Z-0.1000 F50.00 
G01 X60.6092 Y54.2646 F100.00 
G01 X60.5817 Y54.4380 
G01 X60.5275 Y54.6050 
G01 X60.4478 Y54.7614 
G01 X60.3446 Y54.9034 
G01 X60.2205 Y55.0275 
G01 X60.0785 Y55.1307 
G01 X59.9221 Y55.2104 
G01 X59.7551 Y55.2646 
G01 X59.5817 Y55.2921 
G01 X59.4062 Y55.2921 
G01 X59.2328 Y55.2646 
G01 X59.0659 Y55.2104 
G01 X58.9095 Y55.1307 
G01 X58.7675 Y55.0275 
G01 X58.6433 Y54.9034 
G01 X58.5402 Y54.7614 
G01 X58.4605 Y54.6050 
G01 X58.4062 Y54.4380 
G01 X58.3788 Y54.2646 
G01 X58.3788 Y54.0891 
G01 X58.4062 Y53.9157 
G01 X58.4605 Y53.7488 
G01 X58.5402 Y53.5924 
G01 X58.6433 Y53.4504 
G01 X58.7675 Y53.3263 
G01 X58.9095 Y53.2231 
G01 X59.0659 Y53.1434 
G01 X59.2328 Y53.0891 
G01 X59.4062 Y53.0617 
G01 X59.5817 Y53.0617 
G01 X59.7551 Y53.0891 
G01 X59.9221 Y53.1434 
G01 X60.0785 Y53.2231 
G01 X60.2205 Y53.3263 
G01 X60.3446 Y53.4504 
G01 X60.4478 Y53.5924 
G01 X60.5275 Y53.7488 
G01 X60.5817 Y53.9157 
G01 X60.6092 Y54.0891 
G00 Z2.4000 
G00 X63.1492 Y51.5491 
G01 Z-0.1000 F50.00 
G01 X63.1492 Y51.7246 F100.00 
G01 X63.1217 Y51.8980 
G01 X63.0675 Y52.0650 
G01 X62.9878 Y52.2214 
G01 X62.8846 Y52.3634 
G01 X62.7605 Y52.4875 
G01 X62.6185 Y52.5907 
G01 X62.4621 Y52.6704 
G01 X62.2951 Y52.7246 
G01 X62.1217 Y52.7521 
G01 X61.9462 Y52.7521 
G01 X61.7728 Y52.7246 
G01 X61.6059 Y52.6704 
G01 X61.4495 Y52.5907 
G01 X61.3075 Y52.4875 
G01 X61.1833 Y52.3634 
G01 X61.0802 Y52.2214 
G01 X61.0005 Y52.0650 
G01 X60.9462 Y51.8980 
G01 X60.9188 Y51.7246 
G01 X60.9188 Y51.5491 
G01 X60.9462 Y51.3757 
G01 X61.0005 Y51.2088 
G01 X61.0802 Y51.0524 
G01 X61.1833 Y50.9104 
G01 X61.3075 Y50.7863 
G01 X61.4495 Y50.6831 
G01 X61.6059 Y50.6034 
G01 X61.7728 Y50.5491 
G01 X61.9462 Y50.5217 
G01 X62.1217 Y50.5217 
G01 X62.2951 Y50.5491 
G01 X62.4621 Y50.6034 
G01 X62.6185 Y50.6831 
G01 X62.7605 Y50.7863 
G01 X62.8846 Y50.9104 
G01 X62.9878 Y51.0524 
G01 X63.0675 Y51.2088 
G01 X63.1217 Y51.3757 
G01 X63.1492 Y51.5491 
G00 Z2.4000 
G00 X63.1492 Y54.0891 
G01 Z-0.1000 F50.00 
G01 X63.1492 Y54.2646 F100.00 
G01 X63.1217 Y54.4380 
G01 X63.0675 Y54.6050 
G01 X62.9878 Y54.7614 
G01 X62.8846 Y54.9034 
G01 X62.7605 Y55.0275 
G01 X62.6185 Y55.1307 
G01 X62.4621 Y55.2104 
G01 X62.2951 Y55.2646 
G01 X62.1217 Y55.2921 
G01 X61.9462 Y55.2921 
G01 X61.7728 Y55.2646 
G01 X61.6059 Y55.2104 
G01 X61.4495 Y55.1307 
G01 X61.3075 Y55.0275 
G01 X61.1833 Y54.9034 
G01 X61.0802 Y54.7614 
G01 X61.0005 Y54.6050 
G01 X60.9462 Y54.4380 
G01 X60.9188 Y54.2646 
G01 X60.9188 Y54.0891 
G01 X60.9462 Y53.9157 
G01 X61.0005 Y53.7488 
G01 X61.0802 Y53.5924 
G01 X61.1833 Y53.4504 
G01 X61.3075 Y53.3263 
G01 X61.4495 Y53.2231 
G01 X61.6059 Y53.1434 
G01 X61.7728 Y53.0891 
G01 X61.9462 Y53.0617 
G01 X62.1217 Y53.0617 
G01 X62.2951 Y53.0891 
G01 X62.4621 Y53.1434 
G01 X62.6185 Y53.2231 
G01 X62.7605 Y53.3263 
G01 X62.8846 Y53.4504 
G01 X62.9878 Y53.5924 
G01 X63.0675 Y53.7488 
G01 X63.1217 Y53.9157 
G01 X63.1492 Y54.0891 
G00 Z2.4000 
G00 X65.6892 Y51.5491 
G01 Z-0.1000 F50.00 
G01 X65.6892 Y51.7246 F100.00 
G01 X65.6617 Y51.8980 
G01 X65.6075 Y52.0650 
G01 X65.5278 Y52.2214 
G01 X65.4246 Y52.3634 
G01 X65.3005 Y52.4875 
G01 X65.1585 Y52.5907 
G01 X65.0021 Y52.6704 
G01 X64.8351 Y52.7246 
G01 X64.6617 Y52.7521 
G01 X64.4862 Y52.7521 
G01 X64.3128 Y52.7246 
G01 X64.1459 Y52.6704 
G01 X63.9895 Y52.5907 
G01 X63.8475 Y52.4875 
G01 X63.7233 Y52.3634 
G01 X63.6202 Y52.2214 
G01 X63.5405 Y52.0650 
G01 X63.4862 Y51.8980 
G01 X63.4588 Y51.7246 
G01 X63.4588 Y51.5491 
G01 X63.4862 Y51.3757 
G01 X63.5405 Y51.2088 
G01 X63.6202 Y51.0524 
G01 X63.7233 Y50.9104 
G01 X63.8475 Y50.7863 
G01 X63.9895 Y50.6831 
G01 X64.1459 Y50.6034 
G01 X64.3128 Y50.5491 
G01 X64.4862 Y50.5217 
G01 X64.6617 Y50.5217 
G01 X64.8351 Y50.5491 
G01 X65.0021 Y50.6034 
G01 X65.1585 Y50.6831 
G01 X65.3005 Y50.7863 
G01 X65.4246 Y50.9104 
G01 X65.5278 Y51.0524 
G01 X65.6075 Y51.2088 
G01 X65.6617 Y51.3757 
G01 X65.6892 Y51.5491 
G00 Z2.4000 
G00 X65.6892 Y54.0891 
G01 Z-0.1000 F50.00 
G01 X65.6892 Y54.2646 F100.00 
G01 X65.6617 Y54.4380 
G01 X65.6075 Y54.6050 
G01 X65.5278 Y54.7614 
G01 X65.4246 Y54.9034 
G01 X65.3005 Y55.0275 
G01 X65.1585 Y55.1307 
G01 X65.0021 Y55.2104 
G01 X64.8351 Y55.2646 
G01 X64.6617 Y55.2921 
G01 X64.4862 Y55.2921 
G01 X64.3128 Y55.2646 
G01 X64.1459 Y55.2104 
G01 X63.9895 Y55.1307 
G01 X63.8475 Y55.0275 
G01 X63.7233 Y54.9034 
G01 X63.6202 Y54.7614 
G01 X63.5405 Y54.6050 
G01 X63.4862 Y54.4380 
G01 X63.4588 Y54.2646 
G01 X63.4588 Y54.0891 
G01 X63.4862 Y53.9157 
G01 X63.5405 Y53.7488 
G01 X63.6202 Y53.5924 
G01 X63.7233 Y53.4504 
G01 X63.8475 Y53.3263 
G01 X63.9895 Y53.2231 
G01 X64.1459 Y53.1434 
G01 X64.3128 Y53.0891 
G01 X64.4862 Y53.0617 
G01 X64.6617 Y53.0617 
G01 X64.8351 Y53.0891 
G01 X65.0021 Y53.1434 
G01 X65.1585 Y53.2231 
G01 X65.3005 Y53.3263 
G01 X65.4246 Y53.4504 
G01 X65.5278 Y53.5924 
G01 X65.6075 Y53.7488 
G01 X65.6617 Y53.9157 
G01 X65.6892 Y54.0891 
G00 Z2.4000 
G00 X68.2292 Y51.5491 
G01 Z-0.1000 F50.00 
G01 X68.2292 Y51.7246 F100.00 
G01 X68.2017 Y51.8980 
G01 X68.1475 Y52.0650 
G01 X68.0678 Y52.2214 
G01 X67.9646 Y52.3634 
G01 X67.8405 Y52.4875 
G01 X67.6985 Y52.5907 
G01 X67.5421 Y52.6704 
G01 X67.3751 Y52.7246 
G01 X67.2017 Y52.7521 
G01 X67.0262 Y52.7521 
G01 X66.8528 Y52.7246 
G01 X66.6859 Y52.6704 
G01 X66.5295 Y52.5907 
G01 X66.3875 Y52.4875 
G01 X66.2633 Y52.3634 
G01 X66.1602 Y52.2214 
G01 X66.0805 Y52.0650 
G01 X66.0262 Y51.8980 
G01 X65.9988 Y51.7246 
G01 X65.9988 Y51.5491 
G01 X66.0262 Y51.3757 
G01 X66.0805 Y51.2088 
G01 X66.1602 Y51.0524 
G01 X66.2633 Y50.9104 
G01 X66.3875 Y50.7863 
G01 X66.5295 Y50.6831 
G01 X66.6859 Y50.6034 
G01 X66.8528 Y50.5491 
G01 X67.0262 Y50.5217 
G01 X67.2017 Y50.5217 
G01 X67.3751 Y50.5491 
G01 X67.5421 Y50.6034 
G01 X67.6985 Y50.6831 
G01 X67.8405 Y50.7863 
G01 X67.9646 Y50.9104 
G01 X68.0678 Y51.0524 
G01 X68.1475 Y51.2088 
G01 X68.2017 Y51.3757 
G01 X68.2292 Y51.5491 
G00 Z2.4000 
G00 X68.2292 Y54.0891 
G01 Z-0.1000 F50.00 
G01 X68.2292 Y54.2646 F100.00 
G01 X68.2017 Y54.4380 
G01 X68.1475 Y54.6050 
G01 X68.0678 Y54.7614 
G01 X67.9646 Y54.9034 
G01 X67.8405 Y55.0275 
G01 X67.6985 Y55.1307 
G01 X67.5421 Y55.2104 
G01 X67.3751 Y55.2646 
G01 X67.2017 Y55.2921 
G01 X67.0262 Y55.2921 
G01 X66.8528 Y55.2646 
G01 X66.6859 Y55.2104 
G01 X66.5295 Y55.1307 
G01 X66.3875 Y55.0275 
G01 X66.2633 Y54.9034 
G01 X66.1602 Y54.7614 
G01 X66.0805 Y54.6050 
G01 X66.0262 Y54.4380 
G01 X65.9988 Y54.2646 
G01 X65.9988 Y54.0891 
G01 X66.0262 Y53.9157 
G01 X66.0805 Y53.7488 
G01 X66.1602 Y53.5924 
G01 X66.2633 Y53.4504 
G01 X66.3875 Y53.3263 
G01 X66.5295 Y53.2231 
G01 X66.6859 Y53.1434 
G01 X66.8528 Y53.0891 
G01 X67.0262 Y53.0617 
G01 X67.2017 Y53.0617 
G01 X67.3751 Y53.0891 
G01 X67.5421 Y53.1434 
G01 X67.6985 Y53.2231 
G01 X67.8405 Y53.3263 
G01 X67.9646 Y53.4504 
G01 X68.0678 Y53.5924 
G01 X68.1475 Y53.7488 
G01 X68.2017 Y53.9157 
G01 X68.2292 Y54.0891 
G00 Z2.4000 
G00 X70.7692 Y51.5491 
G01 Z-0.1000 F50.00 
G01 X70.7692 Y51.7246 F100.00 
G01 X70.7417 Y51.8980 
G01 X70.6875 Y52.0650 
G01 X70.6078 Y52.2214 
G01 X70.5046 Y52.3634 
G01 X70.3805 Y52.4875 
G01 X70.2385 Y52.5907 
G01 X70.0821 Y52.6704 
G01 X69.9151 Y52.7246 
G01 X69.7417 Y52.7521 
G01 X69.5662 Y52.7521 
G01 X69.3928 Y52.7246 
G01 X69.2259 Y52.6704 
G01 X69.0695 Y52.5907 
G01 X68.9275 Y52.4875 
G01 X68.8033 Y52.3634 
G01 X68.7002 Y52.2214 
G01 X68.6205 Y52.0650 
G01 X68.5662 Y51.8980 
G01 X68.5388 Y51.7246 
G01 X68.5388 Y51.5491 
G01 X68.5662 Y51.3757 
G01 X68.6205 Y51.2088 
G01 X68.7002 Y51.0524 
G01 X68.8033 Y50.9104 
G01 X68.9275 Y50.7863 
G01 X69.0695 Y50.6831 
G01 X69.2259 Y50.6034 
G01 X69.3928 Y50.5491 
G01 X69.5662 Y50.5217 
G01 X69.7417 Y50.5217 
G01 X69.9151 Y50.5491 
G01 X70.0821 Y50.6034 
G01 X70.2385 Y50.6831 
G01 X70.3805 Y50.7863 
G01 X70.5046 Y50.9104 
G01 X70.6078 Y51.0524 
G01 X70.6875 Y51.2088 
G01 X70.7417 Y51.3757 
G01 X70.7692 Y51.5491 
G00 Z2.4000 
G00 X70.7692 Y54.0891 
G01 Z-0.1000 F50.00 
G01 X70.7692 Y54.2646 F100.00 
G01 X70.7417 Y54.4380 
G01 X70.6875 Y54.6050 
G01 X70.6078 Y54.7614 
G01 X70.5046 Y54.9034 
G01 X70.3805 Y55.0275 
G01 X70.2385 Y55.1307 
G01 X70.0821 Y55.2104 
G01 X69.9151 Y55.2646 
G01 X69.7417 Y55.2921 
G01 X69.5662 Y55.2921 
G01 X69.3928 Y55.2646 
G01 X69.2259 Y55.2104 
G01 X69.0695 Y55.1307 
G01 X68.9275 Y55.0275 
G01 X68.8033 Y54.9034 
G01 X68.7002 Y54.7614 
G01 X68.6205 Y54.6050 
G01 X68.5662 Y54.4380 
G01 X68.5388 Y54.2646 
G01 X68.5388 Y54.0891 
G01 X68.5662 Y53.9157 
G01 X68.6205 Y53.7488 
G01 X68.7002 Y53.5924 
G01 X68.8033 Y53.4504 
G01 X68.9275 Y53.3263 
G01 X69.0695 Y53.2231 
G01 X69.2259 Y53.1434 
G01 X69.3928 Y53.0891 
G01 X69.5662 Y53.0617 
G01 X69.7417 Y53.0617 
G01 X69.9151 Y53.0891 
G01 X70.0821 Y53.1434 
G01 X70.2385 Y53.2231 
G01 X70.3805 Y53.3263 
G01 X70.5046 Y53.4504 
G01 X70.6078 Y53.5924 
G01 X70.6875 Y53.7488 
G01 X70.7417 Y53.9157 
G01 X70.7692 Y54.0891 
G00 Z2.4000 
G00 X46.0956 Y24.9709 
G01 Z-0.1000 F50.00 
G01 X46.0956 Y22.9011 F100.00 
G01 X46.1223 Y22.8366 
G01 X46.1716 Y22.7873 
G01 X46.2361 Y22.7606 
G01 X48.3059 Y22.7606 
G01 X48.3704 Y22.7873 
G01 X48.4197 Y22.8366 
G01 X48.4464 Y22.9011 
G01 X48.4464 Y24.9709 
G01 X48.4197 Y25.0354 
G01 X48.3704 Y25.0847 
G01 X48.3059 Y25.1114 
G01 X46.2361 Y25.1114 
G01 X46.1716 Y25.0847 
G01 X46.1223 Y25.0354 
G01 X46.0956 Y24.9709 
G00 Z2.4000 
G00 X27.5536 Y20.3611 
G01 Z-0.1000 F50.00 
G01 X27.5803 Y20.2966 F100.00 
G01 X27.6296 Y20.2473 
G01 X27.6941 Y20.2206 
G01 X29.7639 Y20.2206 
G01 X29.8284 Y20.2473 
G01 X29.8777 Y20.2966 
G01 X29.9044 Y20.3611 
G01 X29.9044 Y22.4309 
G01 X29.8777 Y22.4954 
G01 X29.8284 Y22.5447 
G01 X29.7639 Y22.5714 
G01 X27.6941 Y22.5714 
G01 X27.6296 Y22.5447 
G01 X27.5803 Y22.4954 
G01 X27.5725 Y22.4764 
G01 X27.5386 Y22.4764 
G01 X19.5564 Y30.4586 
G01 X19.5564 Y40.0733 
G01 X19.5185 Y40.2148 
G01 X19.4452 Y40.3416 
G01 X12.5564 Y47.2305 
G01 X12.5564 Y54.7695 
G01 X15.2305 Y57.4436 
G01 X19.7695 Y57.4436 
G01 X20.8376 Y56.3756 
G01 X20.8376 Y55.1450 
G01 X20.8095 Y55.1307 
G01 X20.6675 Y55.0275 
G01 X20.5433 Y54.9034 
G01 X20.4402 Y54.7614 
G01 X20.3605 Y54.6050 
G01 X20.3062 Y54.4380 
G01 X20.2788 Y54.2646 
G01 X20.2788 Y54.0891 
G01 X20.3062 Y53.9157 
G01 X20.3605 Y53.7488 
G01 X20.4402 Y53.5924 
G01 X20.5433 Y53.4504 
G01 X20.6675 Y53.3263 
G01 X20.8095 Y53.2231 
G01 X20.9659 Y53.1434 
G01 X21.1328 Y53.0891 
G01 X21.3062 Y53.0617 
G01 X21.4817 Y53.0617 
G01 X21.6551 Y53.0891 
G01 X21.8221 Y53.1434 
G01 X21.9785 Y53.2231 
G01 X22.1205 Y53.3263 
G01 X22.2446 Y53.4504 
G01 X22.3478 Y53.5924 
G01 X22.4275 Y53.7488 
G01 X22.4817 Y53.9157 
G01 X22.5092 Y54.0891 
G01 X22.5092 Y54.2646 
G01 X22.4817 Y54.4380 
G01 X22.4275 Y54.6050 
G01 X22.3478 Y54.7614 
G01 X22.2446 Y54.9034 
G01 X22.1205 Y55.0275 
G01 X21.9785 Y55.1307 
G01 X21.9504 Y55.1450 
G01 X21.9504 Y56.6793 
G01 X21.9124 Y56.8208 
G01 X21.8392 Y56.9477 
G01 X21.7356 Y57.0513 
G01 X20.3416 Y58.4452 
G01 X20.2148 Y58.5185 
G01 X20.0733 Y58.5564 
G01 X14.9267 Y58.5564 
G01 X14.7852 Y58.5185 
G01 X14.6584 Y58.4452 
G01 X14.5548 Y58.3416 
G01 X11.6584 Y55.4452 
G01 X11.5548 Y55.3416 
G01 X11.4815 Y55.2148 
G01 X11.4436 Y55.0733 
G01 X11.4436 Y46.9267 
G01 X11.4815 Y46.7852 
G01 X11.5548 Y46.6584 
G01 X11.6584 Y46.5548 
G01 X18.4436 Y39.7695 
G01 X18.4436 Y30.1549 
G01 X18.4815 Y30.0134 
G01 X18.5548 Y29.8865 
G01 X18.6584 Y29.7829 
G01 X26.9665 Y21.4748 
G01 X27.0934 Y21.4015 
G01 X27.2349 Y21.3636 
G01 X27.5536 Y21.3636 
G01 X27.5536 Y20.3611 
G00 Z2.4000 
G00 X27.5536 Y24.9709 
G01 Z-0.1000 F50.00 
G01 X27.5536 Y22.9011 F100.00 
G01 X27.5803 Y22.8366 
G01 X27.6296 Y22.7873 
G01 X27.6941 Y22.7606 
G01 X29.7639 Y22.7606 
G01 X29.8284 Y22.7873 
G01 X29.8777 Y22.8366 
G01 X29.9044 Y22.9011 
G01 X29.9044 Y24.9709 
G01 X29.8777 Y25.0354 
G01 X29.8284 Y25.0847 
G01 X29.7639 Y25.1114 
G01 X27.6941 Y25.1114 
G01 X27.6296 Y25.0847 
G01 X27.5803 Y25.0354 
G01 X27.5536 Y24.9709 
G00 Z2.4000 
G00 X21.5548 Y19.6584 
G01 Z-0.1000 F50.00 
G01 X21.6584 Y19.5548 F100.00 
G01 X21.7159 Y19.5215 
G01 X24.0797 Y17.1578 
G01 X24.2066 Y17.0845 
G01 X24.3481 Y17.0466 
G01 X31.6763 Y17.0466 
G01 X31.8178 Y17.0845 
G01 X31.9446 Y17.1578 
G01 X35.6265 Y20.8396 
G01 X46.0956 Y20.8396 
G01 X46.0956 Y20.3611 
G01 X46.1223 Y20.2966 
G01 X46.1716 Y20.2473 
G01 X46.2361 Y20.2206 
G01 X46.7146 Y20.2206 
G01 X46.7146 Y17.5015 
G01 X44.1665 Y14.9534 
G01 X21.3481 Y14.9534 
G01 X21.2066 Y14.9155 
G01 X21.0797 Y14.8422 
G01 X20.9761 Y14.7386 
G01 X18.9213 Y12.6838 
G01 X9.2434 Y12.6838 
G01 X9.1884 Y12.7918 
G01 X9.0711 Y12.9532 
G01 X8.9300 Y13.0943 
G01 X8.7686 Y13.2115 
G01 X8.5908 Y13.3021 
G01 X8.4011 Y13.3638 
G01 X8.2040 Y13.3950 
G01 X5.8201 Y13.3950 
G01 X5.6230 Y13.3638 
G01 X5.4333 Y13.3021 
G01 X5.2555 Y13.2115 
G01 X5.0941 Y13.0943 
G01 X4.9530 Y12.9532 
G01 X4.8357 Y12.7918 
G01 X4.7451 Y12.6140 
G01 X4.6835 Y12.4242 
G01 X4.6523 Y12.2272 
G01 X4.6523 Y12.0276 
G01 X4.6835 Y11.8306 
G01 X4.7451 Y11.6408 
G01 X4.8357 Y11.4630 
G01 X4.9530 Y11.3016 
G01 X5.0941 Y11.1605 
G01 X5.2555 Y11.0432 
G01 X5.4333 Y10.9527 
G01 X5.6230 Y10.8910 
G01 X5.8201 Y10.8598 
G01 X8.2040 Y10.8598 
G01 X8.4011 Y10.8910 
G01 X8.5908 Y10.9527 
G01 X8.7686 Y11.0432 
G01 X8.9300 Y11.1605 
G01 X9.0711 Y11.3016 
G01 X9.1884 Y11.4630 
G01 X9.2434 Y11.5710 
G01 X19.2250 Y11.5710 
G01 X19.3665 Y11.6089 
G01 X19.4934 Y11.6822 
G01 X21.6518 Y13.8406 
G01 X44.4703 Y13.8406 
G01 X44.6118 Y13.8785 
G01 X44.7386 Y13.9518 
G01 X47.7162 Y16.9294 
G01 X47.7895 Y17.0562 
G01 X47.8274 Y17.1977 
G01 X47.8274 Y20.2206 
G01 X48.3059 Y20.2206 
G01 X48.3704 Y20.2473 
G01 X48.4197 Y20.2966 
G01 X48.4464 Y20.3611 
G01 X48.4464 Y22.4309 
G01 X48.4197 Y22.4954 
G01 X48.3704 Y22.5447 
G01 X48.3059 Y22.5714 
G01 X46.2361 Y22.5714 
G01 X46.1716 Y22.5447 
G01 X46.1223 Y22.4954 
G01 X46.0956 Y22.4309 
G01 X46.0956 Y21.9524 
G01 X35.3227 Y21.9524 
G01 X35.1812 Y21.9145 
G01 X35.0544 Y21.8412 
G01 X34.9508 Y21.7376 
G01 X31.3725 Y18.1594 
G01 X24.6518 Y18.1594 
G01 X22.3660 Y20.4452 
G01 X16.1594 Y26.6518 
G01 X16.1594 Y35.4703 
G01 X16.1215 Y35.6118 
G01 X16.0482 Y35.7386 
G01 X15.9446 Y35.8422 
G01 X14.4452 Y37.3416 
G01 X14.3416 Y37.4452 
G01 X14.2148 Y37.5185 
G01 X14.0732 Y37.5564 
G01 X12.6754 Y37.5564 
G01 X12.6754 Y38.5349 
G01 X12.6487 Y38.5994 
G01 X12.5994 Y38.6487 
G01 X12.5349 Y38.6754 
G01 X9.4651 Y38.6754 
G01 X9.4006 Y38.6487 
G01 X9.3513 Y38.5994 
G01 X9.3246 Y38.5349 
G01 X9.3246 Y35.4651 
G01 X9.3513 Y35.4006 
G01 X9.4006 Y35.3513 
G01 X9.4651 Y35.3246 
G01 X12.5349 Y35.3246 
G01 X12.5994 Y35.3513 
G01 X12.6487 Y35.4006 
G01 X12.6754 Y35.4651 
G01 X12.6754 Y36.4436 
G01 X13.7695 Y36.4436 
G01 X15.0466 Y35.1665 
G01 X15.0466 Y26.3481 
G01 X15.0845 Y26.2066 
G01 X15.1578 Y26.0797 
G01 X15.2614 Y25.9761 
G01 X21.5215 Y19.7159 
G01 X21.5548 Y19.6584 
G00 Z2.4000 
G00 X20.2076 Y53.3842 
G01 Z-0.1000 F50.00 
G01 X19.9946 Y53.8985 F100.00 
G01 X19.9946 Y54.4552 
G01 X20.2076 Y54.9696 
G01 X20.4443 Y55.2062 
G01 X20.5121 Y55.2741 
G01 X20.5151 Y55.2770 
G01 X20.5534 Y55.3695 
G01 X20.5534 Y56.2037 
G01 X20.5151 Y56.2961 
G01 X20.4443 Y56.3669 
G01 X19.6901 Y57.1211 
G01 X19.5976 Y57.1594 
G01 X15.4024 Y57.1594 
G01 X15.3099 Y57.1211 
G01 X15.2724 Y57.0836 
G01 X12.9497 Y54.7609 
G01 X12.9164 Y54.7276 
G01 X12.8789 Y54.6901 
G01 X12.8406 Y54.5976 
G01 X12.8406 Y47.4024 
G01 X12.8789 Y47.3099 
G01 X12.9497 Y47.2391 
G01 X19.7126 Y40.4762 
G01 X19.8406 Y40.1672 
G01 X19.8406 Y30.6305 
G01 X19.8789 Y30.5380 
G01 X19.9497 Y30.4673 
G01 X26.8753 Y23.5417 
G01 X26.9678 Y23.5034 
G01 X27.0678 Y23.5034 
G01 X27.1603 Y23.5417 
G01 X27.2311 Y23.6124 
G01 X27.2694 Y23.7049 
G01 X27.2694 Y25.0274 
G01 X27.3394 Y25.1963 
G01 X27.4687 Y25.3256 
G01 X27.6376 Y25.3956 
G01 X29.8204 Y25.3956 
G01 X29.9893 Y25.3256 
G01 X30.1186 Y25.1963 
G01 X30.1886 Y25.0274 
G01 X30.1886 Y22.8446 
G01 X30.1354 Y22.7160 
G01 X30.1354 Y22.6159 
G01 X30.1737 Y22.5235 
G01 X30.1886 Y22.4874 
G01 X30.1886 Y20.3046 
G01 X30.1597 Y20.2347 
G01 X30.1214 Y20.1422 
G01 X30.1214 Y20.0421 
G01 X30.1597 Y19.9497 
G01 X30.2304 Y19.8789 
G01 X30.2331 Y19.8778 
G01 X30.3229 Y19.8406 
G01 X30.5976 Y19.8406 
G01 X30.6901 Y19.8789 
G01 X30.7609 Y19.9497 
G01 X35.1211 Y24.3099 
G01 X35.1594 Y24.4024 
G01 X35.1594 Y28.1672 
G01 X35.2874 Y28.4762 
G01 X35.5946 Y28.7834 
G01 X42.1278 Y35.3166 
G01 X42.4368 Y35.4446 
G01 X42.9743 Y35.4446 
G01 X43.0192 Y35.4428 
G01 X43.0241 Y35.4446 
G01 X43.0294 Y35.4446 
G01 X43.0709 Y35.4618 
G01 X43.1131 Y35.4773 
G01 X43.1170 Y35.4809 
G01 X43.1219 Y35.4829 
G01 X43.1537 Y35.5147 
G01 X43.1867 Y35.5452 
G01 X43.1889 Y35.5499 
G01 X43.1926 Y35.5537 
G01 X43.2099 Y35.5952 
G01 X43.2287 Y35.6360 
G01 X43.2289 Y35.6413 
G01 X43.2309 Y35.6461 
G01 X43.2309 Y35.6911 
G01 X43.2474 Y36.0974 
G01 X45.8984 Y38.7484 
G01 X52.0577 Y38.7484 
G01 X55.7484 Y35.0577 
G01 X55.7484 Y1.1216 
G01 X55.7867 Y1.0291 
G01 X55.8575 Y0.9584 
G01 X55.9500 Y0.9201 
G01 X76.9277 Y0.9201 
G01 X77.0202 Y0.9584 
G01 X77.0910 Y1.0291 
G01 X77.1293 Y1.1216 
G01 X77.1293 Y2.7882 
G01 X77.1336 Y2.8215 
G01 X77.1293 Y2.8378 
G01 X77.1293 Y2.8547 
G01 X77.1164 Y2.8857 
G01 X77.1077 Y2.9181 
G01 X77.0974 Y2.9316 
G01 X77.0910 Y2.9472 
G01 X77.0672 Y2.9709 
G01 X77.0468 Y2.9976 
G01 X77.0322 Y3.0060 
G01 X77.0202 Y3.0180 
G01 X76.9892 Y3.0308 
G01 X76.9601 Y3.0476 
G01 X76.9433 Y3.0498 
G01 X76.9277 Y3.0563 
G01 X76.8942 Y3.0563 
G01 X76.8609 Y3.0607 
G01 X76.8445 Y3.0563 
G01 X76.8276 Y3.0563 
G01 X76.7966 Y3.0434 
G01 X76.7642 Y3.0348 
G01 X76.7508 Y3.0245 
G01 X76.7351 Y3.0180 
G01 X76.7114 Y2.9943 
G01 X76.6848 Y2.9738 
G01 X76.6763 Y2.9592 
G01 X76.6644 Y2.9472 
G01 X76.6515 Y2.9162 
G01 X76.3881 Y2.4598 
G01 X75.9523 Y2.0240 
G01 X75.4186 Y1.7159 
G01 X74.8233 Y1.5564 
G01 X74.2070 Y1.5564 
G01 X73.6117 Y1.7159 
G01 X73.0779 Y2.0240 
G01 X72.6422 Y2.4598 
G01 X72.3340 Y2.9935 
G01 X72.1745 Y3.5889 
G01 X72.1745 Y4.2051 
G01 X72.3340 Y4.8005 
G01 X72.6422 Y5.3342 
G01 X73.0779 Y5.7700 
G01 X73.6117 Y6.0781 
G01 X74.2070 Y6.2376 
G01 X74.8233 Y6.2376 
G01 X75.4186 Y6.0781 
G01 X75.9523 Y5.7700 
G01 X76.3881 Y5.3342 
G01 X76.6515 Y4.8778 
G01 X76.6644 Y4.8468 
G01 X76.6763 Y4.8348 
G01 X76.6848 Y4.8202 
G01 X76.7114 Y4.7998 
G01 X76.7351 Y4.7760 
G01 X76.7508 Y4.7695 
G01 X76.7642 Y4.7592 
G01 X76.7966 Y4.7506 
G01 X76.8276 Y4.7377 
G01 X76.8445 Y4.7377 
G01 X76.8609 Y4.7333 
G01 X76.8942 Y4.7377 
G01 X76.9277 Y4.7377 
G01 X76.9433 Y4.7442 
G01 X76.9601 Y4.7464 
G01 X76.9892 Y4.7632 
G01 X77.0202 Y4.7760 
G01 X77.0322 Y4.7880 
G01 X77.0468 Y4.7964 
G01 X77.0672 Y4.8231 
G01 X77.0910 Y4.8468 
G01 X77.0974 Y4.8624 
G01 X77.1077 Y4.8759 
G01 X77.1164 Y4.9083 
G01 X77.1293 Y4.9393 
G01 X77.1293 Y4.9562 
G01 X77.1336 Y4.9725 
G01 X77.1293 Y5.0058 
G01 X77.1293 Y51.7831 
G01 X77.1336 Y51.8164 
G01 X77.1293 Y51.8327 
G01 X77.1293 Y51.8496 
G01 X77.1164 Y51.8806 
G01 X77.1077 Y51.9130 
G01 X77.0974 Y51.9265 
G01 X77.0910 Y51.9421 
G01 X77.0672 Y51.9658 
G01 X77.0468 Y51.9924 
G01 X77.0322 Y52.0009 
G01 X77.0202 Y52.0129 
G01 X76.9892 Y52.0257 
G01 X76.9601 Y52.0425 
G01 X76.9433 Y52.0447 
G01 X76.9277 Y52.0512 
G01 X76.8942 Y52.0512 
G01 X76.8609 Y52.0556 
G01 X76.8445 Y52.0512 
G01 X76.8276 Y52.0512 
G01 X76.7966 Y52.0383 
G01 X76.7642 Y52.0297 
G01 X76.7508 Y52.0193 
G01 X76.7351 Y52.0129 
G01 X76.7114 Y51.9891 
G01 X76.6848 Y51.9687 
G01 X76.6763 Y51.9541 
G01 X76.6644 Y51.9421 
G01 X76.6515 Y51.9111 
G01 X76.3869 Y51.4528 
G01 X75.9511 Y51.0170 
G01 X75.4174 Y50.7089 
G01 X74.8221 Y50.5494 
G01 X74.2058 Y50.5494 
G01 X73.6105 Y50.7089 
G01 X73.0768 Y51.0170 
G01 X72.6410 Y51.4528 
G01 X72.3329 Y51.9865 
G01 X72.1734 Y52.5818 
G01 X72.1734 Y53.1981 
G01 X72.3329 Y53.7934 
G01 X72.6410 Y54.3271 
G01 X73.0768 Y54.7629 
G01 X73.6105 Y55.0710 
G01 X74.2058 Y55.2306 
G01 X74.8221 Y55.2306 
G01 X75.4174 Y55.0710 
G01 X75.9511 Y54.7629 
G01 X76.3869 Y54.3271 
G01 X76.6515 Y53.8688 
G01 X76.6644 Y53.8378 
G01 X76.6763 Y53.8259 
G01 X76.6848 Y53.8112 
G01 X76.7114 Y53.7908 
G01 X76.7351 Y53.7670 
G01 X76.7508 Y53.7606 
G01 X76.7642 Y53.7503 
G01 X76.7966 Y53.7416 
G01 X76.8276 Y53.7287 
G01 X76.8445 Y53.7287 
G01 X76.8609 Y53.7244 
G01 X76.8942 Y53.7287 
G01 X76.9277 Y53.7287 
G01 X76.9433 Y53.7352 
G01 X76.9601 Y53.7374 
G01 X76.9892 Y53.7542 
G01 X77.0202 Y53.7670 
G01 X77.0322 Y53.7790 
G01 X77.0468 Y53.7875 
G01 X77.0672 Y53.8141 
G01 X77.0910 Y53.8378 
G01 X77.0974 Y53.8535 
G01 X77.1077 Y53.8669 
G01 X77.1164 Y53.8993 
G01 X77.1293 Y53.9303 
G01 X77.1293 Y53.9472 
G01 X77.1336 Y53.9636 
G01 X77.1293 Y53.9968 
G01 X77.1293 Y59.7866 
G01 X77.0910 Y59.8791 
G01 X77.0202 Y59.9498 
G01 X76.9277 Y59.9881 
G01 X1.1102 Y59.9881 
G01 X1.0178 Y59.9498 
G01 X0.9470 Y59.8791 
G01 X0.9087 Y59.7866 
G01 X0.9087 Y15.9500 
G01 X0.9470 Y15.8575 
G01 X1.0178 Y15.7867 
G01 X1.1102 Y15.7484 
G01 X37.0500 Y15.7484 
G01 X37.1425 Y15.7867 
G01 X37.2133 Y15.8575 
G01 X41.5171 Y20.1613 
G01 X41.5554 Y20.2538 
G01 X41.5554 Y20.3538 
G01 X41.5171 Y20.4463 
G01 X41.4463 Y20.5171 
G01 X41.3538 Y20.5554 
G01 X35.7984 Y20.5554 
G01 X35.7059 Y20.5171 
G01 X35.6351 Y20.4463 
G01 X32.0792 Y16.8904 
G01 X31.7702 Y16.7624 
G01 X24.2541 Y16.7624 
G01 X23.9452 Y16.8904 
G01 X23.6379 Y17.1976 
G01 X21.5654 Y19.2702 
G01 X21.5238 Y19.2874 
G01 X21.2874 Y19.5238 
G01 X21.2775 Y19.5477 
G01 X21.2702 Y19.5654 
G01 X21.2005 Y19.6351 
G01 X15.1268 Y25.7087 
G01 X14.8904 Y25.9452 
G01 X14.7624 Y26.2541 
G01 X14.7624 Y34.9946 
G01 X14.7241 Y35.0871 
G01 X14.6533 Y35.1579 
G01 X13.6901 Y36.1211 
G01 X13.5976 Y36.1594 
G01 X13.1611 Y36.1594 
G01 X13.0687 Y36.1211 
G01 X12.9979 Y36.0503 
G01 X12.9596 Y35.9578 
G01 X12.9596 Y35.4086 
G01 X12.8896 Y35.2397 
G01 X12.7603 Y35.1104 
G01 X12.5914 Y35.0404 
G01 X9.4086 Y35.0404 
G01 X9.2397 Y35.1104 
G01 X9.1104 Y35.2397 
G01 X9.0404 Y35.4086 
G01 X9.0404 Y38.5914 
G01 X9.1104 Y38.7603 
G01 X9.2397 Y38.8896 
G01 X9.4086 Y38.9596 
G01 X12.5914 Y38.9596 
G01 X12.7603 Y38.8896 
G01 X12.8896 Y38.7603 
G01 X12.9596 Y38.5914 
G01 X12.9596 Y38.0421 
G01 X12.9979 Y37.9497 
G01 X13.0687 Y37.8789 
G01 X13.1611 Y37.8406 
G01 X14.1672 Y37.8406 
G01 X14.4762 Y37.7126 
G01 X14.7126 Y37.4762 
G01 X14.7834 Y37.4054 
G01 X15.7653 Y36.4235 
G01 X15.8578 Y36.3852 
G01 X15.9578 Y36.3852 
G01 X16.0503 Y36.4235 
G01 X16.1211 Y36.4943 
G01 X16.1594 Y36.5867 
G01 X16.1594 Y39.5976 
G01 X16.1211 Y39.6901 
G01 X16.0503 Y39.7609 
G01 X14.6901 Y41.1211 
G01 X14.5976 Y41.1594 
G01 X13.1611 Y41.1594 
G01 X13.0687 Y41.1211 
G01 X12.9979 Y41.0503 
G01 X12.9596 Y40.9578 
G01 X12.9596 Y40.4086 
G01 X12.8896 Y40.2397 
G01 X12.7603 Y40.1104 
G01 X12.5914 Y40.0404 
G01 X9.4086 Y40.0404 
G01 X9.2397 Y40.1104 
G01 X9.1104 Y40.2397 
G01 X9.0404 Y40.4086 
G01 X9.0404 Y43.5914 
G01 X9.1104 Y43.7603 
G01 X9.2397 Y43.8896 
G01 X9.4086 Y43.9596 
G01 X12.5914 Y43.9596 
G01 X12.7603 Y43.8896 
G01 X12.8896 Y43.7603 
G01 X12.9596 Y43.5914 
G01 X12.9596 Y43.0421 
G01 X12.9979 Y42.9497 
G01 X13.0687 Y42.8789 
G01 X13.1611 Y42.8406 
G01 X14.4132 Y42.8406 
G01 X14.5057 Y42.8789 
G01 X14.5765 Y42.9497 
G01 X14.6148 Y43.0421 
G01 X14.6148 Y43.1422 
G01 X14.5765 Y43.2347 
G01 X14.5057 Y43.3055 
G01 X11.5238 Y46.2874 
G01 X11.2874 Y46.5238 
G01 X11.1594 Y46.8328 
G01 X11.1594 Y55.1672 
G01 X11.2874 Y55.4762 
G01 X11.5238 Y55.7126 
G01 X11.5946 Y55.7834 
G01 X14.2874 Y58.4762 
G01 X14.5238 Y58.7126 
G01 X14.8328 Y58.8406 
G01 X20.1672 Y58.8406 
G01 X20.4762 Y58.7126 
G01 X21.8701 Y57.3187 
G01 X22.1066 Y57.0822 
G01 X22.2346 Y56.7732 
G01 X22.2346 Y55.3695 
G01 X22.2729 Y55.2770 
G01 X22.3436 Y55.2062 
G01 X22.4507 Y55.0992 
G01 X22.5189 Y55.0310 
G01 X22.6139 Y54.9901 
G01 X22.7140 Y54.9901 
G01 X22.8065 Y55.0284 
G01 X23.1413 Y55.3632 
G01 X23.6556 Y55.5763 
G01 X24.2123 Y55.5763 
G01 X24.7267 Y55.3632 
G01 X25.0614 Y55.0284 
G01 X25.1539 Y54.9901 
G01 X25.2540 Y54.9901 
G01 X25.3465 Y55.0284 
G01 X25.4173 Y55.0992 
G01 X25.6813 Y55.3632 
G01 X26.1956 Y55.5763 
G01 X26.7523 Y55.5763 
G01 X27.2667 Y55.3632 
G01 X27.6014 Y55.0284 
G01 X27.6939 Y54.9901 
G01 X27.7940 Y54.9901 
G01 X27.8865 Y55.0284 
G01 X27.9573 Y55.0992 
G01 X28.2213 Y55.3632 
G01 X28.7356 Y55.5763 
G01 X29.2923 Y55.5763 
G01 X29.8067 Y55.3632 
G01 X30.0707 Y55.0992 
G01 X30.1383 Y55.0316 
G01 X30.1414 Y55.0284 
G01 X30.2339 Y54.9901 
G01 X30.3340 Y54.9901 
G01 X30.4265 Y55.0284 
G01 X30.4962 Y55.0981 
G01 X30.7613 Y55.3632 
G01 X31.2756 Y55.5763 
G01 X31.8323 Y55.5763 
G01 X32.3467 Y55.3632 
G01 X32.6814 Y55.0284 
G01 X32.7739 Y54.9901 
G01 X32.8740 Y54.9901 
G01 X32.9665 Y55.0284 
G01 X33.0373 Y55.0992 
G01 X33.3013 Y55.3632 
G01 X33.8156 Y55.5763 
G01 X34.3723 Y55.5763 
G01 X34.8867 Y55.3632 
G01 X35.2214 Y55.0284 
G01 X35.3139 Y54.9901 
G01 X35.4140 Y54.9901 
G01 X35.5065 Y55.0284 
G01 X35.5773 Y55.0992 
G01 X35.8413 Y55.3632 
G01 X36.3556 Y55.5763 
G01 X36.9123 Y55.5763 
G01 X37.4267 Y55.3632 
G01 X37.7614 Y55.0284 
G01 X37.8539 Y54.9901 
G01 X37.9540 Y54.9901 
G01 X38.0465 Y55.0284 
G01 X38.1173 Y55.0992 
G01 X38.3813 Y55.3632 
G01 X38.8956 Y55.5763 
G01 X39.4523 Y55.5763 
G01 X39.9667 Y55.3632 
G01 X40.3014 Y55.0284 
G01 X40.3939 Y54.9901 
G01 X40.4940 Y54.9901 
G01 X40.5865 Y55.0284 
G01 X40.6573 Y55.0992 
G01 X40.9213 Y55.3632 
G01 X41.4356 Y55.5763 
G01 X41.9923 Y55.5763 
G01 X42.5067 Y55.3632 
G01 X42.8414 Y55.0284 
G01 X42.9339 Y54.9901 
G01 X43.0340 Y54.9901 
G01 X43.1265 Y55.0284 
G01 X43.1973 Y55.0992 
G01 X43.4613 Y55.3632 
G01 X43.9756 Y55.5763 
G01 X44.5323 Y55.5763 
G01 X45.0467 Y55.3632 
G01 X45.3814 Y55.0284 
G01 X45.4739 Y54.9901 
G01 X45.5740 Y54.9901 
G01 X45.6665 Y55.0284 
G01 X45.7373 Y55.0992 
G01 X46.0013 Y55.3632 
G01 X46.5156 Y55.5763 
G01 X47.0723 Y55.5763 
G01 X47.5867 Y55.3632 
G01 X47.8507 Y55.0992 
G01 X47.8889 Y55.0610 
G01 X47.9214 Y55.0284 
G01 X48.0139 Y54.9901 
G01 X48.1140 Y54.9901 
G01 X48.2065 Y55.0284 
G01 X48.5413 Y55.3632 
G01 X49.0556 Y55.5763 
G01 X49.6123 Y55.5763 
G01 X50.1267 Y55.3632 
G01 X50.4614 Y55.0284 
G01 X50.5539 Y54.9901 
G01 X50.6540 Y54.9901 
G01 X50.7465 Y55.0284 
G01 X50.8173 Y55.0992 
G01 X51.0813 Y55.3632 
G01 X51.5956 Y55.5763 
G01 X52.1523 Y55.5763 
G01 X52.6667 Y55.3632 
G01 X53.0014 Y55.0284 
G01 X53.0939 Y54.9901 
G01 X53.1940 Y54.9901 
G01 X53.2865 Y55.0284 
G01 X53.3573 Y55.0992 
G01 X53.6213 Y55.3632 
G01 X54.1356 Y55.5763 
G01 X54.6923 Y55.5763 
G01 X55.2067 Y55.3632 
G01 X55.4707 Y55.0992 
G01 X55.5383 Y55.0316 
G01 X55.5414 Y55.0284 
G01 X55.6339 Y54.9901 
G01 X55.7340 Y54.9901 
G01 X55.8265 Y55.0284 
G01 X55.8962 Y55.0981 
G01 X56.1613 Y55.3632 
G01 X56.6756 Y55.5763 
G01 X57.2323 Y55.5763 
G01 X57.7467 Y55.3632 
G01 X58.0107 Y55.0992 
G01 X58.0783 Y55.0316 
G01 X58.0814 Y55.0284 
G01 X58.1739 Y54.9901 
G01 X58.2740 Y54.9901 
G01 X58.3665 Y55.0284 
G01 X58.4362 Y55.0981 
G01 X58.7013 Y55.3632 
G01 X59.2156 Y55.5763 
G01 X59.7723 Y55.5763 
G01 X60.2867 Y55.3632 
G01 X60.5507 Y55.0992 
G01 X60.6183 Y55.0316 
G01 X60.6214 Y55.0284 
G01 X60.7139 Y54.9901 
G01 X60.8140 Y54.9901 
G01 X60.9065 Y55.0284 
G01 X60.9762 Y55.0981 
G01 X61.2413 Y55.3632 
G01 X61.7556 Y55.5763 
G01 X62.3123 Y55.5763 
G01 X62.8267 Y55.3632 
G01 X63.0907 Y55.0992 
G01 X63.1583 Y55.0316 
G01 X63.1614 Y55.0284 
G01 X63.2539 Y54.9901 
G01 X63.3540 Y54.9901 
G01 X63.4465 Y55.0284 
G01 X63.5162 Y55.0981 
G01 X63.7813 Y55.3632 
G01 X64.2956 Y55.5763 
G01 X64.8523 Y55.5763 
G01 X65.3667 Y55.3632 
G01 X65.6307 Y55.0992 
G01 X65.6983 Y55.0316 
G01 X65.7014 Y55.0284 
G01 X65.7939 Y54.9901 
G01 X65.8940 Y54.9901 
G01 X65.9865 Y55.0284 
G01 X66.0562 Y55.0981 
G01 X66.3213 Y55.3632 
G01 X66.8356 Y55.5763 
G01 X67.3923 Y55.5763 
G01 X67.9067 Y55.3632 
G01 X68.1707 Y55.0992 
G01 X68.2383 Y55.0316 
G01 X68.2414 Y55.0284 
G01 X68.3339 Y54.9901 
G01 X68.4340 Y54.9901 
G01 X68.5265 Y55.0284 
G01 X68.5962 Y55.0981 
G01 X68.8613 Y55.3632 
G01 X69.3756 Y55.5763 
G01 X69.9323 Y55.5763 
G01 X70.4467 Y55.3632 
G01 X70.8403 Y54.9696 
G01 X71.0534 Y54.4552 
G01 X71.0534 Y53.8985 
G01 X70.8403 Y53.3842 
G01 X70.5055 Y53.0494 
G01 X70.4672 Y52.9569 
G01 X70.4672 Y52.8568 
G01 X70.5055 Y52.7644 
G01 X70.5763 Y52.6936 
G01 X70.8403 Y52.4296 
G01 X71.0534 Y51.9152 
G01 X71.0534 Y51.3585 
G01 X70.8403 Y50.8442 
G01 X70.4467 Y50.4505 
G01 X69.9323 Y50.2375 
G01 X69.3756 Y50.2375 
G01 X68.8613 Y50.4505 
G01 X68.5265 Y50.7853 
G01 X68.4340 Y50.8236 
G01 X68.3339 Y50.8236 
G01 X68.2414 Y50.7853 
G01 X68.1707 Y50.7145 
G01 X67.9067 Y50.4505 
G01 X67.3923 Y50.2375 
G01 X66.8356 Y50.2375 
G01 X66.3213 Y50.4505 
G01 X65.9865 Y50.7853 
G01 X65.8940 Y50.8236 
G01 X65.7939 Y50.8236 
G01 X65.7014 Y50.7853 
G01 X65.6307 Y50.7145 
G01 X65.3667 Y50.4505 
G01 X64.8523 Y50.2375 
G01 X64.2956 Y50.2375 
G01 X63.7813 Y50.4505 
G01 X63.4465 Y50.7853 
G01 X63.3540 Y50.8236 
G01 X63.2539 Y50.8236 
G01 X63.1614 Y50.7853 
G01 X63.0907 Y50.7145 
G01 X62.8267 Y50.4505 
G01 X62.3123 Y50.2375 
G01 X61.7556 Y50.2375 
G01 X61.2413 Y50.4505 
G01 X60.9065 Y50.7853 
G01 X60.8140 Y50.8236 
G01 X60.7139 Y50.8236 
G01 X60.6214 Y50.7853 
G01 X60.5507 Y50.7145 
G01 X60.2867 Y50.4505 
G01 X59.7723 Y50.2375 
G01 X59.2156 Y50.2375 
G01 X58.7013 Y50.4505 
G01 X58.3665 Y50.7853 
G01 X58.2740 Y50.8236 
G01 X58.1739 Y50.8236 
G01 X58.0814 Y50.7853 
G01 X58.0107 Y50.7145 
G01 X57.7467 Y50.4505 
G01 X57.2323 Y50.2375 
G01 X56.6756 Y50.2375 
G01 X56.1613 Y50.4505 
G01 X55.8265 Y50.7853 
G01 X55.7340 Y50.8236 
G01 X55.6339 Y50.8236 
G01 X55.5414 Y50.7853 
G01 X55.4707 Y50.7145 
G01 X55.2067 Y50.4505 
G01 X54.6923 Y50.2375 
G01 X54.1356 Y50.2375 
G01 X53.6213 Y50.4505 
G01 X53.3573 Y50.7145 
G01 X53.2896 Y50.7822 
G01 X53.2865 Y50.7853 
G01 X53.1940 Y50.8236 
G01 X53.0939 Y50.8236 
G01 X53.0014 Y50.7853 
G01 X52.9318 Y50.7156 
G01 X52.6667 Y50.4505 
G01 X52.1523 Y50.2375 
G01 X51.5956 Y50.2375 
G01 X51.0813 Y50.4505 
G01 X50.7465 Y50.7853 
G01 X50.6540 Y50.8236 
G01 X50.5539 Y50.8236 
G01 X50.4614 Y50.7853 
G01 X50.3907 Y50.7145 
G01 X50.1267 Y50.4505 
G01 X49.6123 Y50.2375 
G01 X49.0556 Y50.2375 
G01 X48.5413 Y50.4505 
G01 X48.2065 Y50.7853 
G01 X48.1140 Y50.8236 
G01 X48.0139 Y50.8236 
G01 X47.9214 Y50.7853 
G01 X47.8507 Y50.7145 
G01 X47.5867 Y50.4505 
G01 X47.0723 Y50.2375 
G01 X46.5156 Y50.2375 
G01 X46.0013 Y50.4505 
G01 X45.6665 Y50.7853 
G01 X45.5740 Y50.8236 
G01 X45.4739 Y50.8236 
G01 X45.3814 Y50.7853 
G01 X45.3107 Y50.7145 
G01 X45.0467 Y50.4505 
G01 X44.5323 Y50.2375 
G01 X43.9756 Y50.2375 
G01 X43.4613 Y50.4505 
G01 X43.1973 Y50.7145 
G01 X43.1591 Y50.7527 
G01 X43.1265 Y50.7853 
G01 X43.0340 Y50.8236 
G01 X42.9339 Y50.8236 
G01 X42.8414 Y50.7853 
G01 X42.5067 Y50.4505 
G01 X41.9923 Y50.2375 
G01 X41.4356 Y50.2375 
G01 X40.9213 Y50.4505 
G01 X40.5865 Y50.7853 
G01 X40.4940 Y50.8236 
G01 X40.3939 Y50.8236 
G01 X40.3014 Y50.7853 
G01 X40.2307 Y50.7145 
G01 X39.9667 Y50.4505 
G01 X39.4523 Y50.2375 
G01 X38.8956 Y50.2375 
G01 X38.3813 Y50.4505 
G01 X38.0465 Y50.7853 
G01 X37.9540 Y50.8236 
G01 X37.8539 Y50.8236 
G01 X37.7614 Y50.7853 
G01 X37.6907 Y50.7145 
G01 X37.4267 Y50.4505 
G01 X36.9123 Y50.2375 
G01 X36.3556 Y50.2375 
G01 X35.8413 Y50.4505 
G01 X35.5065 Y50.7853 
G01 X35.4140 Y50.8236 
G01 X35.3139 Y50.8236 
G01 X35.2214 Y50.7853 
G01 X35.1507 Y50.7145 
G01 X34.8867 Y50.4505 
G01 X34.3723 Y50.2375 
G01 X33.8156 Y50.2375 
G01 X33.3013 Y50.4505 
G01 X32.9076 Y50.8442 
G01 X32.8474 Y50.9896 
G01 X32.8442 Y51.0096 
G01 X32.8284 Y51.0354 
G01 X32.8168 Y51.0633 
G01 X32.8025 Y51.0777 
G01 X32.7919 Y51.0950 
G01 X32.7674 Y51.1127 
G01 X32.7461 Y51.1341 
G01 X32.7273 Y51.1419 
G01 X32.7109 Y51.1538 
G01 X32.6815 Y51.1609 
G01 X32.6536 Y51.1724 
G01 X32.6333 Y51.1724 
G01 X32.6136 Y51.1772 
G01 X32.5837 Y51.1724 
G01 X32.5689 Y51.1724 
G01 X32.5875 Y51.2088 
G01 X32.6417 Y51.3757 
G01 X32.6692 Y51.5491 
G01 X32.6692 Y51.7246 
G01 X32.6417 Y51.8980 
G01 X32.5875 Y52.0650 
G01 X32.5078 Y52.2214 
G01 X32.4046 Y52.3634 
G01 X32.2805 Y52.4875 
G01 X32.1385 Y52.5907 
G01 X31.9821 Y52.6704 
G01 X31.8151 Y52.7246 
G01 X31.6417 Y52.7521 
G01 X31.4662 Y52.7521 
G01 X31.2928 Y52.7246 
G01 X31.1259 Y52.6704 
G01 X30.9695 Y52.5907 
G01 X30.8275 Y52.4875 
G01 X30.7033 Y52.3634 
G01 X30.6002 Y52.2214 
G01 X30.5205 Y52.0650 
G01 X30.4662 Y51.8980 
G01 X30.4388 Y51.7246 
G01 X30.4388 Y51.5491 
G01 X30.4662 Y51.3757 
G01 X30.5205 Y51.2088 
G01 X30.5390 Y51.1724 
G01 X30.5242 Y51.1724 
G01 X30.4943 Y51.1772 
G01 X30.4746 Y51.1724 
G01 X30.4544 Y51.1724 
G01 X30.4264 Y51.1609 
G01 X30.3970 Y51.1538 
G01 X30.3806 Y51.1419 
G01 X30.3619 Y51.1341 
G01 X30.3405 Y51.1127 
G01 X30.3160 Y51.0950 
G01 X30.3054 Y51.0777 
G01 X30.2911 Y51.0633 
G01 X30.2795 Y51.0354 
G01 X30.2637 Y51.0096 
G01 X30.2606 Y50.9896 
G01 X30.2003 Y50.8442 
G01 X29.8067 Y50.4505 
G01 X29.2923 Y50.2375 
G01 X28.7356 Y50.2375 
G01 X28.2213 Y50.4505 
G01 X27.8865 Y50.7853 
G01 X27.7940 Y50.8236 
G01 X27.6939 Y50.8236 
G01 X27.6014 Y50.7853 
G01 X27.5307 Y50.7145 
G01 X27.2667 Y50.4505 
G01 X26.7523 Y50.2375 
G01 X26.1956 Y50.2375 
G01 X25.6813 Y50.4505 
G01 X25.3465 Y50.7853 
G01 X25.2540 Y50.8236 
G01 X25.1539 Y50.8236 
G01 X25.0614 Y50.7853 
G01 X24.9907 Y50.7145 
G01 X24.7267 Y50.4505 
G01 X24.2123 Y50.2375 
G01 X23.6556 Y50.2375 
G01 X23.1413 Y50.4505 
G01 X22.8065 Y50.7853 
G01 X22.7140 Y50.8236 
G01 X22.6139 Y50.8236 
G01 X22.5214 Y50.7853 
G01 X22.4507 Y50.7145 
G01 X22.1867 Y50.4505 
G01 X21.6723 Y50.2375 
G01 X21.1156 Y50.2375 
G01 X20.6013 Y50.4505 
G01 X20.2076 Y50.8442 
G01 X19.9946 Y51.3585 
G01 X19.9946 Y51.9152 
G01 X20.2076 Y52.4296 
G01 X20.5424 Y52.7644 
G01 X20.5807 Y52.8568 
G01 X20.5807 Y52.9569 
G01 X20.5424 Y53.0494 
G01 X20.4716 Y53.1202 
G01 X20.2076 Y53.3842 
G00 Z2.4000 
G00 X0.0330 Y0.8199 
G01 Z-0.1000 F50.00 
G01 X-0.0701 Y0.7168 F100.00 
G01 X-0.1430 Y0.5906 
G01 X-0.1807 Y0.4498 
G01 X-0.1807 Y0.3040 
G01 X-0.1430 Y0.1632 
G01 X-0.0701 Y0.0370 
G01 X0.0330 Y-0.0661 
G01 X0.1592 Y-0.1389 
G01 X0.3000 Y-0.1767 
G01 X0.4458 Y-0.1767 
G01 X0.5866 Y-0.1389 
G01 X0.7128 Y-0.0661 
G01 X0.8159 Y0.0370 
G01 X0.8711 Y0.1327 
G01 X77.1715 Y0.1327 
G01 X77.2225 Y0.0443 
G01 X77.3255 Y-0.0587 
G01 X77.4518 Y-0.1316 
G01 X77.5926 Y-0.1693 
G01 X77.7383 Y-0.1693 
G01 X77.8791 Y-0.1316 
G01 X78.0054 Y-0.0587 
G01 X78.1085 Y0.0443 
G01 X78.1813 Y0.1706 
G01 X78.2191 Y0.3114 
G01 X78.2191 Y0.4571 
G01 X78.1813 Y0.5979 
G01 X78.1085 Y0.7242 
G01 X78.0054 Y0.8273 
G01 X77.9167 Y0.8785 
G01 X77.9167 Y60.0512 
G01 X78.0050 Y60.1022 
G01 X78.1081 Y60.2052 
G01 X78.1809 Y60.3315 
G01 X78.2187 Y60.4723 
G01 X78.2187 Y60.6181 
G01 X78.1809 Y60.7589 
G01 X78.1081 Y60.8851 
G01 X78.0050 Y60.9882 
G01 X77.8788 Y61.0610 
G01 X77.7379 Y61.0988 
G01 X77.5922 Y61.0988 
G01 X77.4514 Y61.0610 
G01 X77.3252 Y60.9882 
G01 X77.2221 Y60.8851 
G01 X77.1588 Y60.7755 
G01 X0.8458 Y60.7755 
G01 X0.7948 Y60.8639 
G01 X0.6917 Y60.9669 
G01 X0.5655 Y61.0398 
G01 X0.4247 Y61.0775 
G01 X0.2789 Y61.0775 
G01 X0.1381 Y61.0398 
G01 X0.0119 Y60.9669 
G01 X-0.0912 Y60.8639 
G01 X-0.1641 Y60.7376 
G01 X-0.2018 Y60.5968 
G01 X-0.2018 Y60.4511 
G01 X-0.1641 Y60.3103 
G01 X-0.0912 Y60.1840 
G01 X0.0119 Y60.0809 
G01 X0.1213 Y60.0178 
G01 X0.1213 Y0.8709 
G01 X0.0330 Y0.8199 
G00 Z2.4000 
G00 X30.0546 Y32.3277 
G01 Z-0.1000 F50.00 
G01 X30.0546 Y31.8003 F100.00 
G01 X29.8528 Y31.3131 
G01 X29.4799 Y30.9402 
G01 X28.9927 Y30.7384 
G01 X28.4653 Y30.7384 
G01 X27.9781 Y30.9402 
G01 X27.6052 Y31.3131 
G01 X27.4034 Y31.8003 
G01 X27.4034 Y32.3277 
G01 X27.6052 Y32.8149 
G01 X27.9781 Y33.1878 
G01 X27.9960 Y33.1952 
G01 X28.0011 Y33.1960 
G01 X28.0428 Y33.2146 
G01 X28.0851 Y33.2321 
G01 X28.0891 Y33.2352 
G01 X28.0938 Y33.2373 
G01 X28.1294 Y33.2661 
G01 X28.1656 Y33.2939 
G01 X28.1687 Y33.2980 
G01 X28.1727 Y33.3012 
G01 X28.1996 Y33.3381 
G01 X28.2274 Y33.3744 
G01 X28.2294 Y33.3792 
G01 X28.2324 Y33.3833 
G01 X28.2342 Y33.3880 
G01 X28.4004 Y33.3340 
G01 X28.2264 Y33.2775 
G01 X28.0427 Y33.1839 
G01 X27.8760 Y33.0628 
G01 X27.7302 Y32.9170 
G01 X27.6091 Y32.7503 
G01 X27.5155 Y32.5666 
G01 X27.4518 Y32.3706 
G01 X27.4196 Y32.1671 
G01 X27.4196 Y31.9609 
G01 X27.4518 Y31.7574 
G01 X27.5155 Y31.5614 
G01 X27.6091 Y31.3777 
G01 X27.7302 Y31.2110 
G01 X27.8760 Y31.0652 
G01 X28.0427 Y30.9441 
G01 X28.2264 Y30.8505 
G01 X28.4224 Y30.7868 
G01 X28.6259 Y30.7546 
G01 X28.8321 Y30.7546 
G01 X29.0356 Y30.7868 
G01 X29.2316 Y30.8505 
G01 X29.4153 Y30.9441 
G01 X29.5820 Y31.0652 
G01 X29.7278 Y31.2110 
G01 X29.8489 Y31.3777 
G01 X29.9425 Y31.5614 
G01 X30.0062 Y31.7574 
G01 X30.0384 Y31.9609 
G01 X30.0384 Y32.1671 
G01 X30.0062 Y32.3706 
G01 X29.9425 Y32.5666 
G01 X29.8489 Y32.7503 
G01 X29.7278 Y32.9170 
G01 X29.5820 Y33.0628 
G01 X29.4153 Y33.1839 
G01 X29.2316 Y33.2775 
G01 X29.0576 Y33.3340 
G01 X29.2238 Y33.3880 
G01 X29.2256 Y33.3833 
G01 X29.2286 Y33.3792 
G01 X29.2306 Y33.3744 
G01 X29.2584 Y33.3381 
G01 X29.2853 Y33.3012 
G01 X29.2893 Y33.2980 
G01 X29.2924 Y33.2939 
G01 X29.3286 Y33.2661 
G01 X29.3642 Y33.2373 
G01 X29.3689 Y33.2352 
G01 X29.3729 Y33.2321 
G01 X29.4152 Y33.2146 
G01 X29.4569 Y33.1960 
G01 X29.4620 Y33.1952 
G01 X29.4799 Y33.1878 
G01 X29.8528 Y32.8149 
G01 X30.0546 Y32.3277 
G00 Z2.4000 
G00 X18.2775 Y51.5494 
G01 Z-0.1000 F50.00 
G01 X17.8667 Y51.1386 F100.00 
G01 X17.3635 Y50.8481 
G01 X16.8023 Y50.6977 
G01 X16.2213 Y50.6977 
G01 X15.6601 Y50.8481 
G01 X15.1569 Y51.1386 
G01 X14.7461 Y51.5494 
G01 X14.4556 Y52.0526 
G01 X14.3052 Y52.6138 
G01 X14.3052 Y53.1948 
G01 X14.4556 Y53.7560 
G01 X14.7461 Y54.2592 
G01 X15.1569 Y54.6700 
G01 X15.6601 Y54.9605 
G01 X16.2213 Y55.1109 
G01 X16.8023 Y55.1109 
G01 X17.3635 Y54.9605 
G01 X17.8667 Y54.6700 
G01 X18.2775 Y54.2592 
G01 X18.5680 Y53.7560 
G01 X18.7184 Y53.1948 
G01 X18.7184 Y52.6138 
G01 X18.5680 Y52.0526 
G01 X18.2775 Y51.5494 
G00 Z2.4000 
G00 X48.5966 Y32.3277 
G01 Z-0.1000 F50.00 
G01 X48.5966 Y31.8003 F100.00 
G01 X48.3948 Y31.3131 
G01 X48.0219 Y30.9402 
G01 X47.5347 Y30.7384 
G01 X47.0073 Y30.7384 
G01 X46.5201 Y30.9402 
G01 X46.1472 Y31.3131 
G01 X45.9454 Y31.8003 
G01 X45.9454 Y32.3277 
G01 X46.1472 Y32.8149 
G01 X46.5201 Y33.1878 
G01 X46.5380 Y33.1952 
G01 X46.5431 Y33.1960 
G01 X46.5848 Y33.2146 
G01 X46.6271 Y33.2321 
G01 X46.6311 Y33.2352 
G01 X46.6358 Y33.2373 
G01 X46.6714 Y33.2661 
G01 X46.7076 Y33.2939 
G01 X46.7107 Y33.2980 
G01 X46.7147 Y33.3012 
G01 X46.7416 Y33.3381 
G01 X46.7694 Y33.3744 
G01 X46.7714 Y33.3792 
G01 X46.7744 Y33.3833 
G01 X46.7762 Y33.3880 
G01 X46.9424 Y33.3340 
G01 X46.7684 Y33.2775 
G01 X46.5847 Y33.1839 
G01 X46.4180 Y33.0628 
G01 X46.2722 Y32.9170 
G01 X46.1511 Y32.7503 
G01 X46.0575 Y32.5666 
G01 X45.9938 Y32.3706 
G01 X45.9616 Y32.1671 
G01 X45.9616 Y31.9609 
G01 X45.9938 Y31.7574 
G01 X46.0575 Y31.5614 
G01 X46.1511 Y31.3777 
G01 X46.2722 Y31.2110 
G01 X46.4180 Y31.0652 
G01 X46.5847 Y30.9441 
G01 X46.7684 Y30.8505 
G01 X46.9644 Y30.7868 
G01 X47.1679 Y30.7546 
G01 X47.3741 Y30.7546 
G01 X47.5776 Y30.7868 
G01 X47.7736 Y30.8505 
G01 X47.9573 Y30.9441 
G01 X48.1240 Y31.0652 
G01 X48.2698 Y31.2110 
G01 X48.3909 Y31.3777 
G01 X48.4845 Y31.5614 
G01 X48.5482 Y31.7574 
G01 X48.5804 Y31.9609 
G01 X48.5804 Y32.1671 
G01 X48.5482 Y32.3706 
G01 X48.4845 Y32.5666 
G01 X48.3909 Y32.7503 
G01 X48.2698 Y32.9170 
G01 X48.1240 Y33.0628 
G01 X47.9573 Y33.1839 
G01 X47.7736 Y33.2775 
G01 X47.5996 Y33.3340 
G01 X47.7658 Y33.3880 
G01 X47.7676 Y33.3833 
G01 X47.7706 Y33.3792 
G01 X47.7726 Y33.3744 
G01 X47.8004 Y33.3381 
G01 X47.8273 Y33.3012 
G01 X47.8313 Y33.2980 
G01 X47.8344 Y33.2939 
G01 X47.8706 Y33.2661 
G01 X47.9062 Y33.2373 
G01 X47.9109 Y33.2352 
G01 X47.9149 Y33.2321 
G01 X47.9572 Y33.2146 
G01 X47.9989 Y33.1960 
G01 X48.0040 Y33.1952 
G01 X48.0219 Y33.1878 
G01 X48.3948 Y32.8149 
G01 X48.5966 Y32.3277 
G00 Z2.4000 
G00 X18.2982 Y2.5392 
G01 Z-0.1000 F50.00 
G01 X17.8873 Y2.1284 F100.00 
G01 X17.3842 Y1.8379 
G01 X16.8229 Y1.6875 
G01 X16.2419 Y1.6875 
G01 X15.6807 Y1.8379 
G01 X15.1775 Y2.1284 
G01 X14.7667 Y2.5392 
G01 X14.4762 Y3.0424 
G01 X14.3258 Y3.6036 
G01 X14.3258 Y4.1846 
G01 X14.4762 Y4.7458 
G01 X14.7667 Y5.2490 
G01 X15.1775 Y5.6598 
G01 X15.6807 Y5.9503 
G01 X16.2419 Y6.1007 
G01 X16.8229 Y6.1007 
G01 X17.3842 Y5.9503 
G01 X17.8873 Y5.6598 
G01 X18.2982 Y5.2490 
G01 X18.5887 Y4.7458 
G01 X18.7390 Y4.1846 
G01 X18.7390 Y3.6036 
G01 X18.5887 Y3.0424 
G01 X18.2982 Y2.5392 
G00 Z2.4000 
G00 X0.9070 Y0.8152 
G01 Z-0.1000 F50.00 
G01 X0.8112 Y0.9110 F100.00 
G01 X0.7585 Y0.9462 
G01 X0.7585 Y59.9687 
G01 X0.7901 Y59.9898 
G01 X0.8859 Y60.0856 
G01 X0.9211 Y60.1383 
G01 X77.1099 Y60.1383 
G01 X77.1310 Y60.1068 
G01 X77.2267 Y60.0111 
G01 X77.2795 Y59.9759 
G01 X77.2795 Y0.9533 
G01 X77.2271 Y0.9184 
G01 X77.1314 Y0.8226 
G01 X77.0961 Y0.7699 
G01 X0.9373 Y0.7699 
G01 X0.9070 Y0.8152 
G00 Z2.4000 
G00 X15.2860 Y57.3096 
G01 Z-0.1000 F50.00 
G01 X19.7140 Y57.3096 F100.00 
G01 X20.7036 Y56.3201 
G01 X20.7036 Y55.2194 
G01 X20.5802 Y55.1297 
G01 X20.4411 Y54.9907 
G01 X20.3256 Y54.8316 
G01 X20.2363 Y54.6564 
G01 X20.1755 Y54.4694 
G01 X20.1448 Y54.2752 
G01 X20.1448 Y54.0786 
G01 X20.1755 Y53.8844 
G01 X20.2363 Y53.6974 
G01 X20.3256 Y53.5222 
G01 X20.4411 Y53.3631 
G01 X20.5802 Y53.2240 
G01 X20.7392 Y53.1085 
G01 X20.9144 Y53.0192 
G01 X21.1014 Y52.9584 
G01 X21.2957 Y52.9277 
G01 X21.4923 Y52.9277 
G01 X21.6865 Y52.9584 
G01 X21.8735 Y53.0192 
G01 X22.0487 Y53.1085 
G01 X22.2078 Y53.2240 
G01 X22.3468 Y53.3631 
G01 X22.4624 Y53.5222 
G01 X22.5516 Y53.6974 
G01 X22.6124 Y53.8844 
G01 X22.6432 Y54.0786 
G01 X22.6432 Y54.2752 
G01 X22.6124 Y54.4694 
G01 X22.5516 Y54.6564 
G01 X22.4624 Y54.8316 
G01 X22.3468 Y54.9907 
G01 X22.2078 Y55.1297 
G01 X22.0844 Y55.2194 
G01 X22.0844 Y56.6740 
G01 X22.0578 Y56.8074 
G01 X22.0058 Y56.9331 
G01 X21.9302 Y57.0461 
G01 X21.8341 Y57.1423 
G01 X20.4401 Y58.5363 
G01 X20.3270 Y58.6118 
G01 X20.2014 Y58.6639 
G01 X20.0680 Y58.6904 
G01 X14.9320 Y58.6904 
G01 X14.7986 Y58.6639 
G01 X14.6730 Y58.6118 
G01 X14.5599 Y58.5363 
G01 X14.4637 Y58.4401 
G01 X11.5599 Y55.5363 
G01 X11.4637 Y55.4401 
G01 X11.3882 Y55.3270 
G01 X11.3361 Y55.2014 
G01 X11.3096 Y55.0680 
G01 X11.3096 Y46.9320 
G01 X11.3361 Y46.7986 
G01 X11.3882 Y46.6730 
G01 X11.4637 Y46.5599 
G01 X11.5599 Y46.4637 
G01 X18.3096 Y39.7140 
G01 X18.3096 Y30.1602 
G01 X18.3361 Y30.0268 
G01 X18.3882 Y29.9011 
G01 X18.4637 Y29.7881 
G01 X18.5599 Y29.6919 
G01 X26.8681 Y21.3837 
G01 X26.9811 Y21.3082 
G01 X27.1068 Y21.2561 
G01 X27.2402 Y21.2296 
G01 X27.4196 Y21.2296 
G01 X27.4196 Y20.3553 
G01 X27.4407 Y20.2766 
G01 X27.4814 Y20.2060 
G01 X27.5390 Y20.1484 
G01 X27.6096 Y20.1077 
G01 X27.6883 Y20.0866 
G01 X29.7697 Y20.0866 
G01 X29.8484 Y20.1077 
G01 X29.9190 Y20.1484 
G01 X29.9766 Y20.2060 
G01 X30.0173 Y20.2766 
G01 X30.0384 Y20.3553 
G01 X30.0384 Y22.4367 
G01 X30.0173 Y22.5154 
G01 X29.9766 Y22.5860 
G01 X29.9190 Y22.6436 
G01 X29.8801 Y22.6660 
G01 X29.9190 Y22.6884 
G01 X29.9766 Y22.7460 
G01 X30.0173 Y22.8166 
G01 X30.0384 Y22.8953 
G01 X30.0384 Y24.9767 
G01 X30.0173 Y25.0554 
G01 X29.9766 Y25.1260 
G01 X29.9190 Y25.1836 
G01 X29.8484 Y25.2243 
G01 X29.7697 Y25.2454 
G01 X27.6883 Y25.2454 
G01 X27.6096 Y25.2243 
G01 X27.5390 Y25.1836 
G01 X27.4814 Y25.1260 
G01 X27.4407 Y25.0554 
G01 X27.4196 Y24.9767 
G01 X27.4196 Y22.8953 
G01 X27.4407 Y22.8166 
G01 X27.4814 Y22.7460 
G01 X27.5390 Y22.6884 
G01 X27.5779 Y22.6660 
G01 X27.5529 Y22.6516 
G01 X19.6904 Y30.5141 
G01 X19.6904 Y40.0680 
G01 X19.6639 Y40.2014 
G01 X19.6118 Y40.3270 
G01 X19.5363 Y40.4401 
G01 X12.6904 Y47.2860 
G01 X12.6904 Y54.7140 
G01 X15.2860 Y57.3096 
G00 Z2.4000 
G00 X20.1286 Y54.4286 
G01 Z-0.1000 F50.00 
G01 X20.3212 Y54.8937 F100.00 
G01 X20.5385 Y55.1110 
G01 X20.6044 Y55.1769 
G01 X20.6103 Y55.1828 
G01 X20.6611 Y55.2707 
G01 X20.6874 Y55.3688 
G01 X20.6874 Y56.2044 
G01 X20.6611 Y56.3025 
G01 X20.6103 Y56.3904 
G01 X20.5385 Y56.4622 
G01 X19.7844 Y57.2164 
G01 X19.6964 Y57.2671 
G01 X19.5984 Y57.2934 
G01 X15.4016 Y57.2934 
G01 X15.3036 Y57.2671 
G01 X15.2156 Y57.2164 
G01 X15.1778 Y57.1785 
G01 X12.8554 Y54.8561 
G01 X12.8215 Y54.8222 
G01 X12.7836 Y54.7844 
G01 X12.7329 Y54.6964 
G01 X12.7066 Y54.5984 
G01 X12.7066 Y47.4016 
G01 X12.7329 Y47.3036 
G01 X12.7836 Y47.2156 
G01 X12.8554 Y47.1438 
G01 X19.5990 Y40.4003 
G01 X19.7066 Y40.1405 
G01 X19.7066 Y30.6298 
G01 X19.7329 Y30.5317 
G01 X19.7836 Y30.4438 
G01 X19.8554 Y30.3720 
G01 X26.7810 Y23.4464 
G01 X26.8690 Y23.3956 
G01 X26.9670 Y23.3694 
G01 X27.0686 Y23.3694 
G01 X27.1666 Y23.3956 
G01 X27.2546 Y23.4464 
G01 X27.3264 Y23.5182 
G01 X27.3771 Y23.6061 
G01 X27.4034 Y23.7042 
G01 X27.4034 Y25.0008 
G01 X27.4530 Y25.1204 
G01 X27.5446 Y25.2120 
G01 X27.6642 Y25.2616 
G01 X29.7938 Y25.2616 
G01 X29.9134 Y25.2120 
G01 X30.0050 Y25.1204 
G01 X30.0546 Y25.0008 
G01 X30.0546 Y22.8712 
G01 X30.0113 Y22.7667 
G01 X29.9980 Y22.6660 
G01 X30.0113 Y22.5653 
G01 X30.0370 Y22.5034 
G01 X30.0501 Y22.4715 
G01 X30.0546 Y22.4608 
G01 X30.0546 Y20.3312 
G01 X30.0264 Y20.2631 
G01 X30.0136 Y20.2410 
G01 X30.0070 Y20.2164 
G01 X29.9973 Y20.1929 
G01 X29.9940 Y20.1676 
G01 X29.9874 Y20.1430 
G01 X29.9874 Y20.1175 
G01 X29.9840 Y20.0922 
G01 X29.9874 Y20.0669 
G01 X29.9874 Y20.0414 
G01 X29.9940 Y20.0168 
G01 X29.9973 Y19.9915 
G01 X30.0070 Y19.9680 
G01 X30.0136 Y19.9434 
G01 X30.0264 Y19.9213 
G01 X30.0361 Y19.8977 
G01 X30.0517 Y19.8775 
G01 X30.0644 Y19.8554 
G01 X30.0824 Y19.8374 
G01 X30.0979 Y19.8172 
G01 X30.1182 Y19.8017 
G01 X30.1362 Y19.7836 
G01 X30.1583 Y19.7709 
G01 X30.1785 Y19.7554 
G01 X30.2020 Y19.7456 
G01 X30.2241 Y19.7329 
G01 X30.2487 Y19.7263 
G01 X30.2723 Y19.7165 
G01 X30.2976 Y19.7132 
G01 X30.3222 Y19.7066 
G01 X30.3477 Y19.7066 
G01 X30.3730 Y19.7033 
G01 X30.3982 Y19.7066 
G01 X30.5984 Y19.7066 
G01 X30.6964 Y19.7329 
G01 X30.7844 Y19.7836 
G01 X30.8561 Y19.8554 
G01 X35.2164 Y24.2156 
G01 X35.2671 Y24.3036 
G01 X35.2934 Y24.4016 
G01 X35.2934 Y28.1405 
G01 X35.4010 Y28.4003 
G01 X35.6899 Y28.6892 
G01 X42.2037 Y35.2030 
G01 X42.4634 Y35.3106 
G01 X42.9715 Y35.3106 
G01 X43.0145 Y35.3089 
G01 X43.0222 Y35.3106 
G01 X43.0301 Y35.3106 
G01 X43.0716 Y35.3217 
G01 X43.1135 Y35.3311 
G01 X43.1205 Y35.3348 
G01 X43.1282 Y35.3369 
G01 X43.1654 Y35.3584 
G01 X43.2034 Y35.3783 
G01 X43.2092 Y35.3837 
G01 X43.2161 Y35.3876 
G01 X43.2465 Y35.4180 
G01 X43.2781 Y35.4471 
G01 X43.2823 Y35.4538 
G01 X43.2879 Y35.4594 
G01 X43.3094 Y35.4966 
G01 X43.3323 Y35.5329 
G01 X43.3347 Y35.5405 
G01 X43.3387 Y35.5474 
G01 X43.3498 Y35.5889 
G01 X43.3626 Y35.6299 
G01 X43.3629 Y35.6378 
G01 X43.3649 Y35.6454 
G01 X43.3649 Y35.6884 
G01 X43.3792 Y36.0397 
G01 X45.9539 Y38.6144 
G01 X52.0022 Y38.6144 
G01 X55.6144 Y35.0022 
G01 X55.6144 Y1.1209 
G01 X55.6407 Y1.0228 
G01 X55.6914 Y0.9349 
G01 X55.7632 Y0.8631 
G01 X55.8512 Y0.8123 
G01 X55.9492 Y0.7861 
G01 X76.9284 Y0.7861 
G01 X77.0265 Y0.8123 
G01 X77.1144 Y0.8631 
G01 X77.1862 Y0.9349 
G01 X77.2370 Y1.0228 
G01 X77.2633 Y1.1209 
G01 X77.2633 Y2.8555 
G01 X77.2370 Y2.9535 
G01 X77.1862 Y3.0415 
G01 X77.1155 Y3.1121 
G01 X77.0784 Y3.1341 
G01 X77.0265 Y3.1640 
G01 X76.9284 Y3.1903 
G01 X76.8269 Y3.1903 
G01 X76.7288 Y3.1640 
G01 X76.6409 Y3.1132 
G01 X76.5702 Y3.0426 
G01 X76.5233 Y2.9621 
G01 X76.5183 Y2.9535 
G01 X76.2808 Y2.5421 
G01 X75.8700 Y2.1313 
G01 X75.3668 Y1.8408 
G01 X74.8056 Y1.6904 
G01 X74.2246 Y1.6904 
G01 X73.6634 Y1.8408 
G01 X73.1602 Y2.1313 
G01 X72.7494 Y2.5421 
G01 X72.4589 Y3.0453 
G01 X72.3085 Y3.6065 
G01 X72.3085 Y4.1875 
G01 X72.4589 Y4.7487 
G01 X72.7494 Y5.2519 
G01 X73.1602 Y5.6627 
G01 X73.6634 Y5.9532 
G01 X74.2246 Y6.1036 
G01 X74.8056 Y6.1036 
G01 X75.3668 Y5.9532 
G01 X75.8700 Y5.6627 
G01 X76.2808 Y5.2519 
G01 X76.5183 Y4.8405 
G01 X76.5204 Y4.8369 
G01 X76.5691 Y4.7526 
G01 X76.6409 Y4.6808 
G01 X76.7288 Y4.6300 
G01 X76.8269 Y4.6037 
G01 X76.9284 Y4.6037 
G01 X77.0265 Y4.6300 
G01 X77.0761 Y4.6587 
G01 X77.1144 Y4.6808 
G01 X77.1862 Y4.7526 
G01 X77.2370 Y4.8405 
G01 X77.2633 Y4.9385 
G01 X77.2633 Y51.8503 
G01 X77.2370 Y51.9484 
G01 X77.1862 Y52.0363 
G01 X77.1155 Y52.1070 
G01 X77.0784 Y52.1289 
G01 X77.0265 Y52.1589 
G01 X76.9284 Y52.1852 
G01 X76.8269 Y52.1852 
G01 X76.7288 Y52.1589 
G01 X76.6409 Y52.1081 
G01 X76.5702 Y52.0375 
G01 X76.5225 Y51.9556 
G01 X76.5183 Y51.9484 
G01 X76.2797 Y51.5351 
G01 X75.8689 Y51.1242 
G01 X75.3657 Y50.8337 
G01 X74.8045 Y50.6834 
G01 X74.2235 Y50.6834 
G01 X73.6623 Y50.8337 
G01 X73.1591 Y51.1242 
G01 X72.7483 Y51.5351 
G01 X72.4578 Y52.0382 
G01 X72.3074 Y52.5995 
G01 X72.3074 Y53.1805 
G01 X72.4578 Y53.7417 
G01 X72.7483 Y54.2448 
G01 X73.1591 Y54.6557 
G01 X73.6623 Y54.9462 
G01 X74.2235 Y55.0966 
G01 X74.8045 Y55.0966 
G01 X75.3657 Y54.9462 
G01 X75.8689 Y54.6557 
G01 X76.2797 Y54.2448 
G01 X76.5183 Y53.8315 
G01 X76.5691 Y53.7436 
G01 X76.6409 Y53.6718 
G01 X76.7288 Y53.6210 
G01 X76.8269 Y53.5947 
G01 X76.9284 Y53.5947 
G01 X77.0265 Y53.6210 
G01 X77.0761 Y53.6497 
G01 X77.1144 Y53.6718 
G01 X77.1862 Y53.7436 
G01 X77.2370 Y53.8315 
G01 X77.2633 Y53.9296 
G01 X77.2633 Y59.7873 
G01 X77.2370 Y59.8854 
G01 X77.1862 Y59.9733 
G01 X77.1144 Y60.0451 
G01 X77.0265 Y60.0959 
G01 X76.9284 Y60.1221 
G01 X1.1095 Y60.1221 
G01 X1.0115 Y60.0959 
G01 X0.9235 Y60.0451 
G01 X0.8517 Y59.9733 
G01 X0.8010 Y59.8854 
G01 X0.7747 Y59.7873 
G01 X0.7747 Y15.9492 
G01 X0.8010 Y15.8512 
G01 X0.8517 Y15.7632 
G01 X0.9235 Y15.6914 
G01 X1.0115 Y15.6407 
G01 X1.1095 Y15.6144 
G01 X37.0508 Y15.6144 
G01 X37.1488 Y15.6407 
G01 X37.2368 Y15.6914 
G01 X37.3086 Y15.7632 
G01 X41.6124 Y20.0670 
G01 X41.6631 Y20.1550 
G01 X41.6894 Y20.2530 
G01 X41.6894 Y20.3546 
G01 X41.6631 Y20.4526 
G01 X41.6124 Y20.5406 
G01 X41.5406 Y20.6124 
G01 X41.4526 Y20.6631 
G01 X41.3546 Y20.6894 
G01 X35.7976 Y20.6894 
G01 X35.6996 Y20.6631 
G01 X35.6116 Y20.6124 
G01 X35.5398 Y20.5406 
G01 X32.0033 Y17.0040 
G01 X31.7435 Y16.8964 
G01 X24.2808 Y16.8964 
G01 X24.0211 Y17.0040 
G01 X23.7322 Y17.2929 
G01 X21.7134 Y19.3117 
G01 X21.6979 Y19.3319 
G01 X21.6776 Y19.3474 
G01 X21.6596 Y19.3654 
G01 X21.6376 Y19.3782 
G01 X21.6173 Y19.3937 
G01 X21.5997 Y19.4010 
G01 X21.4010 Y19.5997 
G01 X21.3937 Y19.6173 
G01 X21.3782 Y19.6375 
G01 X21.3654 Y19.6596 
G01 X21.3474 Y19.6776 
G01 X21.3319 Y19.6979 
G01 X21.3117 Y19.7134 
G01 X15.2211 Y25.8040 
G01 X15.0040 Y26.0211 
G01 X14.8964 Y26.2808 
G01 X14.8964 Y34.9954 
G01 X14.8701 Y35.0934 
G01 X14.8194 Y35.1814 
G01 X14.7476 Y35.2532 
G01 X13.7844 Y36.2164 
G01 X13.6964 Y36.2671 
G01 X13.5984 Y36.2934 
G01 X13.1604 Y36.2934 
G01 X13.0624 Y36.2671 
G01 X12.9744 Y36.2164 
G01 X12.9026 Y36.1446 
G01 X12.8519 Y36.0566 
G01 X12.8256 Y35.9586 
G01 X12.8256 Y35.4352 
G01 X12.7760 Y35.3156 
G01 X12.6844 Y35.2240 
G01 X12.5648 Y35.1744 
G01 X9.4352 Y35.1744 
G01 X9.3156 Y35.2240 
G01 X9.2240 Y35.3156 
G01 X9.1744 Y35.4352 
G01 X9.1744 Y38.5648 
G01 X9.2240 Y38.6844 
G01 X9.3156 Y38.7760 
G01 X9.4352 Y38.8256 
G01 X12.5648 Y38.8256 
G01 X12.6844 Y38.7760 
G01 X12.7760 Y38.6844 
G01 X12.8256 Y38.5648 
G01 X12.8256 Y38.0414 
G01 X12.8519 Y37.9434 
G01 X12.9026 Y37.8554 
G01 X12.9744 Y37.7836 
G01 X13.0624 Y37.7329 
G01 X13.1604 Y37.7066 
G01 X14.1405 Y37.7066 
G01 X14.4003 Y37.5990 
G01 X14.6174 Y37.3819 
G01 X14.6892 Y37.3101 
G01 X15.6710 Y36.3282 
G01 X15.7590 Y36.2775 
G01 X15.8570 Y36.2512 
G01 X15.9586 Y36.2512 
G01 X16.0566 Y36.2775 
G01 X16.1446 Y36.3282 
G01 X16.2164 Y36.4000 
G01 X16.2671 Y36.4880 
G01 X16.2934 Y36.5860 
G01 X16.2934 Y39.5984 
G01 X16.2671 Y39.6964 
G01 X16.2164 Y39.7844 
G01 X16.1446 Y39.8561 
G01 X14.7844 Y41.2164 
G01 X14.6964 Y41.2671 
G01 X14.5984 Y41.2934 
G01 X13.1604 Y41.2934 
G01 X13.0624 Y41.2671 
G01 X12.9744 Y41.2164 
G01 X12.9026 Y41.1446 
G01 X12.8519 Y41.0566 
G01 X12.8256 Y40.9586 
G01 X12.8256 Y40.4352 
G01 X12.7760 Y40.3156 
G01 X12.6844 Y40.2240 
G01 X12.5648 Y40.1744 
G01 X9.4352 Y40.1744 
G01 X9.3156 Y40.2240 
G01 X9.2240 Y40.3156 
G01 X9.1744 Y40.4352 
G01 X9.1744 Y43.5648 
G01 X9.2240 Y43.6844 
G01 X9.3156 Y43.7760 
G01 X9.4352 Y43.8256 
G01 X12.5648 Y43.8256 
G01 X12.6844 Y43.7760 
G01 X12.7760 Y43.6844 
G01 X12.8256 Y43.5648 
G01 X12.8256 Y43.0414 
G01 X12.8519 Y42.9434 
G01 X12.9026 Y42.8554 
G01 X12.9744 Y42.7836 
G01 X13.0624 Y42.7329 
G01 X13.1604 Y42.7066 
G01 X14.4140 Y42.7066 
G01 X14.5120 Y42.7329 
G01 X14.6000 Y42.7836 
G01 X14.6718 Y42.8554 
G01 X14.7225 Y42.9434 
G01 X14.7488 Y43.0414 
G01 X14.7488 Y43.1430 
G01 X14.7225 Y43.2410 
G01 X14.6718 Y43.3290 
G01 X14.6000 Y43.4008 
G01 X11.6181 Y46.3826 
G01 X11.4010 Y46.5997 
G01 X11.2934 Y46.8594 
G01 X11.2934 Y55.1405 
G01 X11.4010 Y55.4003 
G01 X11.6181 Y55.6174 
G01 X11.6899 Y55.6892 
G01 X14.3826 Y58.3819 
G01 X14.5997 Y58.5990 
G01 X14.8594 Y58.7066 
G01 X20.1405 Y58.7066 
G01 X20.4003 Y58.5990 
G01 X21.7759 Y57.2234 
G01 X21.9930 Y57.0063 
G01 X22.1006 Y56.7466 
G01 X22.1006 Y55.3688 
G01 X22.1268 Y55.2707 
G01 X22.1776 Y55.1828 
G01 X22.4272 Y54.9332 
G01 X22.5151 Y54.8824 
G01 X22.6132 Y54.8561 
G01 X22.7147 Y54.8561 
G01 X22.8128 Y54.8824 
G01 X22.9007 Y54.9332 
G01 X22.9725 Y55.0050 
G01 X23.2172 Y55.2496 
G01 X23.6823 Y55.4423 
G01 X24.1857 Y55.4423 
G01 X24.6508 Y55.2496 
G01 X24.9672 Y54.9332 
G01 X25.0525 Y54.8839 
G01 X25.0551 Y54.8824 
G01 X25.1532 Y54.8561 
G01 X25.2547 Y54.8561 
G01 X25.2589 Y54.8573 
G01 X25.3528 Y54.8824 
G01 X25.4388 Y54.9321 
G01 X25.5125 Y55.0050 
G01 X25.7572 Y55.2496 
G01 X26.2223 Y55.4423 
G01 X26.7257 Y55.4423 
G01 X27.1908 Y55.2496 
G01 X27.5072 Y54.9332 
G01 X27.5925 Y54.8839 
G01 X27.5951 Y54.8824 
G01 X27.6932 Y54.8561 
G01 X27.7947 Y54.8561 
G01 X27.7989 Y54.8573 
G01 X27.8928 Y54.8824 
G01 X27.9788 Y54.9321 
G01 X28.0525 Y55.0050 
G01 X28.2972 Y55.2496 
G01 X28.7623 Y55.4423 
G01 X29.2657 Y55.4423 
G01 X29.7308 Y55.2496 
G01 X29.9754 Y55.0050 
G01 X30.0409 Y54.9395 
G01 X30.0472 Y54.9332 
G01 X30.1351 Y54.8824 
G01 X30.2332 Y54.8561 
G01 X30.3347 Y54.8561 
G01 X30.4286 Y54.8813 
G01 X30.4328 Y54.8824 
G01 X30.5207 Y54.9332 
G01 X30.5925 Y55.0050 
G01 X30.8372 Y55.2496 
G01 X31.3023 Y55.4423 
G01 X31.8057 Y55.4423 
G01 X32.2708 Y55.2496 
G01 X32.5872 Y54.9332 
G01 X32.6725 Y54.8839 
G01 X32.6751 Y54.8824 
G01 X32.7732 Y54.8561 
G01 X32.8747 Y54.8561 
G01 X32.8789 Y54.8573 
G01 X32.9728 Y54.8824 
G01 X33.0588 Y54.9321 
G01 X33.1325 Y55.0050 
G01 X33.3772 Y55.2496 
G01 X33.8423 Y55.4423 
G01 X34.3457 Y55.4423 
G01 X34.8108 Y55.2496 
G01 X35.1272 Y54.9332 
G01 X35.2125 Y54.8839 
G01 X35.2151 Y54.8824 
G01 X35.3132 Y54.8561 
G01 X35.4147 Y54.8561 
G01 X35.4189 Y54.8573 
G01 X35.5128 Y54.8824 
G01 X35.5988 Y54.9321 
G01 X35.6725 Y55.0050 
G01 X35.9172 Y55.2496 
G01 X36.3823 Y55.4423 
G01 X36.8857 Y55.4423 
G01 X37.3508 Y55.2496 
G01 X37.6672 Y54.9332 
G01 X37.7525 Y54.8839 
G01 X37.7551 Y54.8824 
G01 X37.8532 Y54.8561 
G01 X37.9547 Y54.8561 
G01 X37.9589 Y54.8573 
G01 X38.0528 Y54.8824 
G01 X38.1388 Y54.9321 
G01 X38.2125 Y55.0050 
G01 X38.4572 Y55.2496 
G01 X38.9223 Y55.4423 
G01 X39.4257 Y55.4423 
G01 X39.8908 Y55.2496 
G01 X40.2072 Y54.9332 
G01 X40.2925 Y54.8839 
G01 X40.2951 Y54.8824 
G01 X40.3932 Y54.8561 
G01 X40.4947 Y54.8561 
G01 X40.4989 Y54.8573 
G01 X40.5928 Y54.8824 
G01 X40.6788 Y54.9321 
G01 X40.7525 Y55.0050 
G01 X40.9972 Y55.2496 
G01 X41.4623 Y55.4423 
G01 X41.9657 Y55.4423 
G01 X42.4308 Y55.2496 
G01 X42.7472 Y54.9332 
G01 X42.8325 Y54.8839 
G01 X42.8351 Y54.8824 
G01 X42.9332 Y54.8561 
G01 X43.0347 Y54.8561 
G01 X43.0389 Y54.8573 
G01 X43.1328 Y54.8824 
G01 X43.2188 Y54.9321 
G01 X43.2925 Y55.0050 
G01 X43.5372 Y55.2496 
G01 X44.0023 Y55.4423 
G01 X44.5057 Y55.4423 
G01 X44.9708 Y55.2496 
G01 X45.2872 Y54.9332 
G01 X45.3725 Y54.8839 
G01 X45.3751 Y54.8824 
G01 X45.4732 Y54.8561 
G01 X45.5747 Y54.8561 
G01 X45.5789 Y54.8573 
G01 X45.6728 Y54.8824 
G01 X45.7588 Y54.9321 
G01 X45.8325 Y55.0050 
G01 X46.0772 Y55.2496 
G01 X46.5423 Y55.4423 
G01 X47.0457 Y55.4423 
G01 X47.5108 Y55.2496 
G01 X47.7554 Y55.0050 
G01 X47.8272 Y54.9332 
G01 X47.9151 Y54.8824 
G01 X48.0132 Y54.8561 
G01 X48.1147 Y54.8561 
G01 X48.2128 Y54.8824 
G01 X48.3007 Y54.9332 
G01 X48.6172 Y55.2496 
G01 X49.0823 Y55.4423 
G01 X49.5857 Y55.4423 
G01 X50.0508 Y55.2496 
G01 X50.3672 Y54.9332 
G01 X50.4525 Y54.8839 
G01 X50.4551 Y54.8824 
G01 X50.5532 Y54.8561 
G01 X50.6547 Y54.8561 
G01 X50.6589 Y54.8573 
G01 X50.7528 Y54.8824 
G01 X50.8388 Y54.9321 
G01 X50.9125 Y55.0050 
G01 X51.1572 Y55.2496 
G01 X51.6223 Y55.4423 
G01 X52.1257 Y55.4423 
G01 X52.5908 Y55.2496 
G01 X52.9072 Y54.9332 
G01 X52.9925 Y54.8839 
G01 X52.9951 Y54.8824 
G01 X53.0932 Y54.8561 
G01 X53.1947 Y54.8561 
G01 X53.1989 Y54.8573 
G01 X53.2928 Y54.8824 
G01 X53.3788 Y54.9321 
G01 X53.4525 Y55.0050 
G01 X53.6972 Y55.2496 
G01 X54.1623 Y55.4423 
G01 X54.6657 Y55.4423 
G01 X55.1308 Y55.2496 
G01 X55.3754 Y55.0050 
G01 X55.4409 Y54.9395 
G01 X55.4472 Y54.9332 
G01 X55.5351 Y54.8824 
G01 X55.6332 Y54.8561 
G01 X55.7347 Y54.8561 
G01 X55.8286 Y54.8813 
G01 X55.8328 Y54.8824 
G01 X55.9207 Y54.9332 
G01 X55.9925 Y55.0050 
G01 X56.2372 Y55.2496 
G01 X56.7023 Y55.4423 
G01 X57.2057 Y55.4423 
G01 X57.6708 Y55.2496 
G01 X57.9154 Y55.0050 
G01 X57.9809 Y54.9395 
G01 X57.9872 Y54.9332 
G01 X58.0751 Y54.8824 
G01 X58.1732 Y54.8561 
G01 X58.2747 Y54.8561 
G01 X58.3686 Y54.8813 
G01 X58.3728 Y54.8824 
G01 X58.4607 Y54.9332 
G01 X58.5325 Y55.0050 
G01 X58.7772 Y55.2496 
G01 X59.2423 Y55.4423 
G01 X59.7457 Y55.4423 
G01 X60.2108 Y55.2496 
G01 X60.4554 Y55.0050 
G01 X60.5209 Y54.9395 
G01 X60.5272 Y54.9332 
G01 X60.6151 Y54.8824 
G01 X60.7132 Y54.8561 
G01 X60.8147 Y54.8561 
G01 X60.9086 Y54.8813 
G01 X60.9128 Y54.8824 
G01 X61.0007 Y54.9332 
G01 X61.0725 Y55.0050 
G01 X61.3172 Y55.2496 
G01 X61.7823 Y55.4423 
G01 X62.2857 Y55.4423 
G01 X62.7508 Y55.2496 
G01 X62.9954 Y55.0050 
G01 X63.0609 Y54.9395 
G01 X63.0672 Y54.9332 
G01 X63.1551 Y54.8824 
G01 X63.2532 Y54.8561 
G01 X63.3547 Y54.8561 
G01 X63.4486 Y54.8813 
G01 X63.4528 Y54.8824 
G01 X63.5407 Y54.9332 
G01 X63.6125 Y55.0050 
G01 X63.8572 Y55.2496 
G01 X64.3223 Y55.4423 
G01 X64.8257 Y55.4423 
G01 X65.2908 Y55.2496 
G01 X65.5354 Y55.0050 
G01 X65.6009 Y54.9395 
G01 X65.6072 Y54.9332 
G01 X65.6951 Y54.8824 
G01 X65.7932 Y54.8561 
G01 X65.8947 Y54.8561 
G01 X65.9886 Y54.8813 
G01 X65.9928 Y54.8824 
G01 X66.0807 Y54.9332 
G01 X66.1525 Y55.0050 
G01 X66.3972 Y55.2496 
G01 X66.8623 Y55.4423 
G01 X67.3657 Y55.4423 
G01 X67.8308 Y55.2496 
G01 X68.0754 Y55.0050 
G01 X68.1409 Y54.9395 
G01 X68.1472 Y54.9332 
G01 X68.2351 Y54.8824 
G01 X68.3332 Y54.8561 
G01 X68.4347 Y54.8561 
G01 X68.5286 Y54.8813 
G01 X68.5328 Y54.8824 
G01 X68.6207 Y54.9332 
G01 X68.6925 Y55.0050 
G01 X68.9372 Y55.2496 
G01 X69.4023 Y55.4423 
G01 X69.9057 Y55.4423 
G01 X70.3708 Y55.2496 
G01 X70.7267 Y54.8937 
G01 X70.9194 Y54.4286 
G01 X70.9194 Y53.9252 
G01 X70.7267 Y53.4601 
G01 X70.4103 Y53.1436 
G01 X70.3610 Y53.0584 
G01 X70.3595 Y53.0557 
G01 X70.3332 Y52.9576 
G01 X70.3332 Y52.8561 
G01 X70.3344 Y52.8519 
G01 X70.3595 Y52.7580 
G01 X70.4092 Y52.6720 
G01 X70.4821 Y52.5983 
G01 X70.7267 Y52.3537 
G01 X70.9194 Y51.8886 
G01 X70.9194 Y51.3852 
G01 X70.7267 Y50.9201 
G01 X70.3708 Y50.5641 
G01 X69.9057 Y50.3715 
G01 X69.4023 Y50.3715 
G01 X68.9372 Y50.5641 
G01 X68.6207 Y50.8806 
G01 X68.5354 Y50.9298 
G01 X68.5328 Y50.9313 
G01 X68.4347 Y50.9576 
G01 X68.3332 Y50.9576 
G01 X68.3290 Y50.9565 
G01 X68.2351 Y50.9313 
G01 X68.1491 Y50.8817 
G01 X68.0754 Y50.8088 
G01 X67.8308 Y50.5641 
G01 X67.3657 Y50.3715 
G01 X66.8623 Y50.3715 
G01 X66.3972 Y50.5641 
G01 X66.0807 Y50.8806 
G01 X65.9954 Y50.9298 
G01 X65.9928 Y50.9313 
G01 X65.8947 Y50.9576 
G01 X65.7932 Y50.9576 
G01 X65.7890 Y50.9565 
G01 X65.6951 Y50.9313 
G01 X65.6091 Y50.8817 
G01 X65.5354 Y50.8088 
G01 X65.2908 Y50.5641 
G01 X64.8257 Y50.3715 
G01 X64.3223 Y50.3715 
G01 X63.8572 Y50.5641 
G01 X63.5407 Y50.8806 
G01 X63.4554 Y50.9298 
G01 X63.4528 Y50.9313 
G01 X63.3547 Y50.9576 
G01 X63.2532 Y50.9576 
G01 X63.2490 Y50.9565 
G01 X63.1551 Y50.9313 
G01 X63.0691 Y50.8817 
G01 X62.9954 Y50.8088 
G01 X62.7508 Y50.5641 
G01 X62.2857 Y50.3715 
G01 X61.7823 Y50.3715 
G01 X61.3172 Y50.5641 
G01 X61.0007 Y50.8806 
G01 X60.9154 Y50.9298 
G01 X60.9128 Y50.9313 
G01 X60.8147 Y50.9576 
G01 X60.7132 Y50.9576 
G01 X60.7090 Y50.9565 
G01 X60.6151 Y50.9313 
G01 X60.5291 Y50.8817 
G01 X60.4554 Y50.8088 
G01 X60.2108 Y50.5641 
G01 X59.7457 Y50.3715 
G01 X59.2423 Y50.3715 
G01 X58.7772 Y50.5641 
G01 X58.4607 Y50.8806 
G01 X58.3754 Y50.9298 
G01 X58.3728 Y50.9313 
G01 X58.2747 Y50.9576 
G01 X58.1732 Y50.9576 
G01 X58.1690 Y50.9565 
G01 X58.0751 Y50.9313 
G01 X57.9891 Y50.8817 
G01 X57.9154 Y50.8088 
G01 X57.6708 Y50.5641 
G01 X57.2057 Y50.3715 
G01 X56.7023 Y50.3715 
G01 X56.2372 Y50.5641 
G01 X55.9207 Y50.8806 
G01 X55.8354 Y50.9298 
G01 X55.8328 Y50.9313 
G01 X55.7347 Y50.9576 
G01 X55.6332 Y50.9576 
G01 X55.6290 Y50.9565 
G01 X55.5351 Y50.9313 
G01 X55.4491 Y50.8817 
G01 X55.3754 Y50.8088 
G01 X55.1308 Y50.5641 
G01 X54.6657 Y50.3715 
G01 X54.1623 Y50.3715 
G01 X53.6972 Y50.5641 
G01 X53.4525 Y50.8088 
G01 X53.3871 Y50.8742 
G01 X53.3807 Y50.8806 
G01 X53.2928 Y50.9313 
G01 X53.1947 Y50.9576 
G01 X53.0932 Y50.9576 
G01 X52.9993 Y50.9325 
G01 X52.9951 Y50.9313 
G01 X52.9072 Y50.8806 
G01 X52.8354 Y50.8088 
G01 X52.5908 Y50.5641 
